N0; Post Processor: proLIGHT 1000 Single Tool
N1; Material Type: Wood
N2; Material Size: X400.0000 Y300.0000 Z50.0000
N3; Material Origin: X0.0000 Y0.0000 Z0.0000
N4; Units: Metric
N5G05
N6;Engrave, Toolpath #1
N7S5000.0
N8M03
N9G0Z25.0; Retract
N10G0X198.0801Y155.7622
N11Z0.07
N12G1Z-10.0F25.4; Plunge
N13G3X197.0196Y152.8322I201.5974J152.8322F76.2
N14G1Y125.6045
N15G3X201.5974Y121.0267I201.5974J125.6045
N16G1X227.0343
N17G3X231.6121Y125.6045I227.0343J125.6045
N18G1Y163.2713
N19G3X230.1563Y166.6194I227.0343J163.2713
N20G1X220.7341Y175.4053
N21G3X214.0949Y174.9872I217.6122J172.0572
N22G1X198.0801Y155.7622
N23G1Z-20.0F25.4; Plunge
N24G3X197.0196Y152.8322I201.5974J152.8322F76.2
N25G1Y125.6045
N26G3X201.5974Y121.0267I201.5974J125.6045
N27G1X227.0343
N28G3X231.6121Y125.6045I227.0343J125.6045
N29G1Y163.2713
N30G3X230.1563Y166.6194I227.0343J163.2713
N31G1X220.7341Y175.4053
N32G3X214.0949Y174.9872I217.6122J172.0572
N33G1X198.0801Y155.7622
N34G0Z25.0; Retract
N35G0X200.3851Y153.8421
N36Z0.07
N37G1Z-10.0F25.4; Plunge
N38G3X200.0196Y152.8322I201.5974J152.8322F76.2
N39G1Y125.6045
N40G3X201.5974Y124.0267I201.5974J125.6045
N41G1X227.0343
N42G3X228.6121Y125.6045I227.0343J125.6045
N43G1Y163.2713
N44G3X228.1104Y164.4253I227.0343J163.2713
N45G1X218.6882Y173.2112
N46G3X216.3999Y173.0671I217.6122J172.0572
N47G1X200.3851Y153.8421
N48G1Z-20.0F25.4; Plunge
N49G3X200.0196Y152.8322I201.5974J152.8322F76.2
N50G1Y125.6045
N51G3X201.5974Y124.0267I201.5974J125.6045
N52G1X227.0343
N53G3X228.6121Y125.6045I227.0343J125.6045
N54G1Y163.2713
N55G3X228.1104Y164.4253I227.0343J163.2713
N56G1X218.6882Y173.2112
N57G3X216.3999Y173.0671I217.6122J172.0572
N58G1X200.3851Y153.8421
N59G0Z25.0; Retract
N60G0X203.0196Y152.3174
N61Z0.07
N62G1Z-10.0F25.4; Plunge
N63G1Y127.0267F76.2
N64X225.6121
N65Y162.6529
N66X217.7423Y169.9914
N67X203.0196Y152.3174
N68G1Z-20.0F25.4; Plunge
N69G1Y127.0267F76.2
N70X225.6121
N71Y162.6529
N72X217.7423Y169.9914
N73X203.0196Y152.3174
N74G0Z25.0; Retract
N75G0X206.0196Y151.2316
N76Z0.07
N77G1Z-10.0F25.4; Plunge
N78G1Y130.0267F76.2
N79X222.6121
N80Y161.3484
N81X218.0167Y165.6336
N82X206.0196Y151.2316
N83G1Z-20.0F25.4; Plunge
N84G1Y130.0267F76.2
N85X222.6121
N86Y161.3484
N87X218.0167Y165.6336
N88X206.0196Y151.2316
N89G0Z25.0; Retract
N90G0X209.0196Y150.1458
N91Z0.07
N92G1Z-10.0F25.4; Plunge
N93G1Y133.0267F76.2
N94X219.6121
N95Y160.0440
N96X218.2911Y161.2758
N97X209.0196Y150.1458
N98G1Z-20.0F25.4; Plunge
N99G1Y133.0267F76.2
N100X219.6121
N101Y160.0440
N102X218.2911Y161.2758
N103X209.0196Y150.1458
N104G0Z25.0; Retract
N105G0X212.0196Y149.0599
N106Z0.07
N107G1Z-10.0F25.4; Plunge
N108G1Y136.0267F76.2
N109X216.6121
N110Y154.5731
N111X212.0196Y149.0599
N112G1Z-20.0F25.4; Plunge
N113G1Y136.0267F76.2
N114X216.6121
N115Y154.5731
N116X212.0196Y149.0599
N117G0Z25.0; Retract
N118G0X218.2911Y161.2758
N119Z0.07
N120G1Z-10.0F25.4; Plunge
N121G1X209.0196Y150.1458F76.2
N122Y133.0267
N123X219.6121
N124Y160.0440
N125G0Z25.0; Retract
N126G0X218.2911Y161.2758
N127Z0.07
N128G1Z-20.0F25.4; Plunge
N129G1X209.0196Y150.1458F76.2
N130Y133.0267
N131X219.6121
N132Y160.0440
N133G0Z25.0; Retract
N134G0X167.2261Y199.5130
N135Z0.07
N136G1Z-10.0F25.4; Plunge
N137G3X163.2479Y203.4082I165.2370J201.4606F76.2
N138G1X126.1369Y165.5070
N139G3X130.1151Y161.6117I128.1260J163.5593
N140G1X167.2261Y199.5130
N141G1Z-20.0F25.4; Plunge
N142G3X163.2479Y203.4082I165.2370J201.4606F76.2
N143G1X126.1369Y165.5070
N144G3X130.1151Y161.6117I128.1260J163.5593
N145G1X167.2261Y199.5130
N146G0Z25.0; Retract
N147G0X306.1361Y239.4124
N148Z0.07
N149G1Z-10.0F25.4; Plunge
N150G2X310.7139Y234.8346I306.1361J234.8346F76.2
N151G1Y227.1754
N152G2X306.1361Y222.5976I306.1361J227.1754
N153G1X196.7957
N154G2X192.2178Y227.1754I196.7957J227.1754
N155G1Y234.8346
N156G2X196.7957Y239.4124I196.7957J234.8346
N157G1X306.1361
N158G1Z-20.0F25.4; Plunge
N159G2X310.7139Y234.8346I306.1361J234.8346F76.2
N160G1Y227.1754
N161G2X306.1361Y222.5976I306.1361J227.1754
N162G1X196.7957
N163G2X192.2178Y227.1754I196.7957J227.1754
N164G1Y234.8346
N165G2X196.7957Y239.4124I196.7957J234.8346
N166G1X306.1361
N167G0Z25.0; Retract
N168G0Y236.4124
N169Z0.07
N170G1Z-10.0F25.4; Plunge
N171G2X307.7139Y234.8346I306.1361J234.8346F76.2
N172G1Y227.1754
N173G2X306.1361Y225.5976I306.1361J227.1754
N174G1X196.7957
N175G2X195.2178Y227.1754I196.7957J227.1754
N176G1Y234.8346
N177G2X196.7957Y236.4124I196.7957J234.8346
N178G1X306.1361
N179G1Z-20.0F25.4; Plunge
N180G2X307.7139Y234.8346I306.1361J234.8346F76.2
N181G1Y227.1754
N182G2X306.1361Y225.5976I306.1361J227.1754
N183G1X196.7957
N184G2X195.2178Y227.1754I196.7957J227.1754
N185G1Y234.8346
N186G2X196.7957Y236.4124I196.7957J234.8346
N187G1X306.1361
N188G0Z25.0; Retract
N189G0X304.7139Y233.4124
N190Z0.07
N191G1Z-10.0F25.4; Plunge
N192G1Y228.5976F76.2
N193X198.2178
N194Y233.4124
N195X304.7139
N196G1Z-20.0F25.4; Plunge
N197G1Y228.5976F76.2
N198X198.2178
N199Y233.4124
N200X304.7139
N201G0Z25.0; Retract
N202G0X96.8228Y179.7342
N203Z0.07
N204G1Z-10.0F25.4; Plunge
N205G1Y121.9905F76.2
N206G3X109.5841Y120.4474I103.2968J121.9905
N207G1X116.7810Y149.7712
N208G3Y151.9535I112.3351J150.8624
N209G1X109.5841Y181.2773
N210G0Z25.0; Retract
N211G0X96.8228Y179.7342
N212Z0.07
N213G1Z-20.0F25.4; Plunge
N214G1Y121.9905F76.2
N215G3X109.5841Y120.4474I103.2968J121.9905
N216G1X116.7810Y149.7712
N217G3Y151.9535I112.3351J150.8624
N218G1X109.5841Y181.2773
N219G0Z25.0; Retract
N220G0X113.8675Y150.4863
N221Z0.07
N222G1Z-10.0F25.4; Plunge
N223G3Y151.2384I112.3351J150.8624F76.2
N224G1X106.6706Y180.5623
N225G3X99.8228Y179.7342I103.2968J179.7342
N226G1Y121.9905
N227G3X106.6706Y121.1625I103.2968J121.9905
N228G1X113.8675Y150.4863
N229G1Z-20.0F25.4; Plunge
N230G3Y151.2384I112.3351J150.8624F76.2
N231G1X106.6706Y180.5623
N232G3X99.8228Y179.7342I103.2968J179.7342
N233G1Y121.9905
N234G3X106.6706Y121.1625I103.2968J121.9905
N235G1X113.8675Y150.4863
N236G0Z25.0; Retract
N237G0X110.8707Y150.8624
N238Z0.07
N239G1Z-10.0F25.4; Plunge
N240G1X103.7570Y179.8472F76.2
N241G3X102.8228Y179.7342I103.2968J179.7342
N242G1Y121.9905
N243G3X103.7570Y121.8775I103.2968J121.9905
N244G1X110.8707Y150.8624
N245G1Z-20.0F25.4; Plunge
N246G1X103.7570Y179.8472F76.2
N247G3X102.8228Y179.7342I103.2968J179.7342
N248G1Y121.9905
N249G3X103.7570Y121.8775I103.2968J121.9905
N250G1X110.8707Y150.8624
N251G0Z25.0; Retract
N252G0X107.7817
N253Z0.07
N254G1Z-10.0F25.4; Plunge
N255G1X105.8228Y158.8437F76.2
N256Y142.8810
N257X107.7817Y150.8624
N258G1Z-20.0F25.4; Plunge
N259G1X105.8228Y158.8437F76.2
N260Y142.8810
N261X107.7817Y150.8624
N262G0Z25.0; Retract
N263G0X22.5903Y170.5950
N264Z0.07
N265G1Z-10.0F25.4; Plunge
N266G1X77.0775F76.2
N267G2X81.6553Y166.0172I77.0775J166.0172
N268G1Y134.7340
N269G2X77.0775Y130.1562I77.0775J134.7340
N270G1X22.5903
N271Y170.5950
N272G1Z-20.0F25.4; Plunge
N273G1X77.0775F76.2
N274G2X81.6553Y166.0172I77.0775J166.0172
N275G1Y134.7340
N276G2X77.0775Y130.1562I77.0775J134.7340
N277G1X22.5903
N278Y170.5950
N279G0Z25.0; Retract
N280G0X25.5903Y167.5950
N281Z0.07
N282G1Z-10.0F25.4; Plunge
N283G1X77.0775F76.2
N284G2X78.6553Y166.0172I77.0775J166.0172
N285G1Y134.7340
N286G2X77.0775Y133.1562I77.0775J134.7340
N287G1X25.5903
N288Y167.5950
N289G1Z-20.0F25.4; Plunge
N290G1X77.0775F76.2
N291G2X78.6553Y166.0172I77.0775J166.0172
N292G1Y134.7340
N293G2X77.0775Y133.1562I77.0775J134.7340
N294G1X25.5903
N295Y167.5950
N296G0Z25.0; Retract
N297G0X28.5903Y164.5950
N298Z0.07
N299G1Z-10.0F25.4; Plunge
N300G1X75.6553F76.2
N301Y136.1562
N302X28.5903
N303Y164.5950
N304G1Z-20.0F25.4; Plunge
N305G1X75.6553F76.2
N306Y136.1562
N307X28.5903
N308Y164.5950
N309G0Z25.0; Retract
N310G0X31.5903Y161.5950
N311Z0.07
N312G1Z-10.0F25.4; Plunge
N313G1X72.6553F76.2
N314Y139.1562
N315X31.5903
N316Y161.5950
N317G1Z-20.0F25.4; Plunge
N318G1X72.6553F76.2
N319Y139.1562
N320X31.5903
N321Y161.5950
N322G0Z25.0; Retract
N323G0X34.5903Y158.5950
N324Z0.07
N325G1Z-10.0F25.4; Plunge
N326G1X69.6553F76.2
N327Y142.1562
N328X34.5903
N329Y158.5950
N330G1Z-20.0F25.4; Plunge
N331G1X69.6553F76.2
N332Y142.1562
N333X34.5903
N334Y158.5950
N335G0Z25.0; Retract
N336G0X37.5903Y155.5950
N337Z0.07
N338G1Z-10.0F25.4; Plunge
N339G1X66.6553F76.2
N340Y145.1562
N341X37.5903
N342Y155.5950
N343G1Z-20.0F25.4; Plunge
N344G1X66.6553F76.2
N345Y145.1562
N346X37.5903
N347Y155.5950
N348G0Z25.0; Retract
N349G0X40.5903Y152.5950
N350Z0.07
N351G1Z-10.0F25.4; Plunge
N352G1X63.6553F76.2
N353Y148.1562
N354X40.5903
N355Y152.5950
N356G1Z-20.0F25.4; Plunge
N357G1X63.6553F76.2
N358Y148.1562
N359X40.5903
N360Y152.5950
N361G0Z25.0; Retract
N362G0X167.1846Y203.4497
N363Z0.07
N364G1Z-10.0F25.4; Plunge
N365G1X126.1783Y161.5702F76.2
N366G0Z25.0; Retract
N367G0X167.1846Y203.4497
N368Z0.07
N369G1Z-20.0F25.4; Plunge
N370G1X126.1783Y161.5702F76.2
N371G0Z25.0; Retract
N372G0X40.5903Y150.3756
N373Z0.07
N374G1Z-10.0F25.4; Plunge
N375G1X63.6553F76.2
N376G0Z25.0; Retract
N377G0X40.5903
N378Z0.07
N379G1Z-20.0F25.4; Plunge
N380G1X63.6553F76.2
N381G0Z25.0; Retract
N382G0X214.3159Y151.8165
N383Z0.07
N384G1Z-10.0F25.4; Plunge
N385G1Y136.0267F76.2
N386G0Z25.0; Retract
N387G0Y151.8165
N388Z0.07
N389G1Z-20.0F25.4; Plunge
N390G1Y136.0267F76.2
N391G0Z25.0; Retract
N392G0X304.7139Y231.0050
N393Z0.07
N394G1Z-10.0F25.4; Plunge
N395G1X198.2178F76.2
N396G0Z25.0; Retract
N397G0X304.7139
N398Z0.07
N399G1Z-20.0F25.4; Plunge
N400G1X198.2178F76.2
N401G0Z25.0; Retract

N5G05
N6;Engrave, Toolpath #1
N7S5000.0
N8M03
N9G0Z25.0; Retract
N10G0X213.2344Y26.7334
N11Z0.07
N12G1Z-25.0F25.4; Plunge
N13G3X229.4628Y19.1806I345.3686J289.4344F76.2
N14X264.2291Y8.8077I290.2900J159.6035
N15X325.3301Y18.4172I280.9579J101.4969
N16X344.3836Y30.8266I275.4556J115.8267
N17X362.8351Y55.1978I305.2277J79.6421
N18X368.2363Y72.2554I275.8336J92.1302
N19X369.9396Y81.3064I227.2803J103.4683
N20X372.0452Y99.9172I122.2029J118.7590
N21X374.4043Y154.7646I-330.9897J157.6317
N22X371.8105Y199.0352I1.7382J155.1413
N23X365.2307Y234.3889I88.8126J164.6541
N24X361.1105Y247.3759I250.5989J205.1687
N25X355.0739Y259.2848I298.9392J223.3460
N26X343.0485Y272.3575I307.5507J227.6358
N27X323.3941Y284.0272I290.4121J206.0925
N28X261.7294Y290.5672I282.4777J192.2159
N29X239.9567Y284.4895I291.6022J141.5135
N30X223.2523Y277.7386I317.3564J68.9296
N31X198.9339Y266.3920I759.9675J-904.2999
N32G2X178.2634Y257.7469I86.9669J505.0722
N33X165.3385Y254.0326I143.9840J352.6856
N34X143.0292Y252.9074I150.4475J327.5549
N35X112.1843Y260.4808I154.3248J365.5118
N36G3X91.2675Y268.5688I5.5321J15.7523
N37X60.3994Y272.2620I66.6604J193.7462
N38X29.1667Y265.2906I68.2928J163.4491
N39X24.3373Y260.9499I32.6906J256.5132
N40X22.7851Y256.4663I37.4548J253.8979
N41X25.2372Y241.5541I45.4972J252.5434
N42X31.8119Y235.6891I37.1141J248.2506
N43X36.0947Y234.2336I42.4068J259.8348
N44X47.8849Y231.8033I82.2017J428.1062
N45G2X57.2063Y229.2867I27.4739J137.6810
N46X72.9616Y220.5838I46.1955J190.7404
N47X80.6534Y207.0118I54.6892J201.2624
N48X80.2001Y190.8602I51.7695J199.7404
N49X74.2403Y181.7073I58.4925J198.4781
N50X69.0431Y177.2649I40.0444J216.4523
N51X65.2571Y174.5117I17.9618J243.5281
N52X62.3715Y173.5950I62.3715J178.5950
N53G1X24.5903
N54G3X19.5903Y168.5950I24.5903J168.5950
N55G1Y130.3371
N56G3X21.2758Y126.5936I24.5903J130.3371
N57X28.9208Y121.6683I39.8961J147.1000
N58G2X31.2583Y119.5362I25.8627J115.9680
N59X32.1570Y116.3892I25.0329J116.0567
N60X31.9504Y111.5253I8.6007J114.9532
N61X29.0181Y100.3113I-14.4688J117.6731
N62X23.4084Y88.2181I-88.1088J147.2954
N63G3X19.7299Y80.2224I126.1285J36.1164
N64X17.3211Y53.6176I58.1442J63.3330
N65X31.9904Y33.8754I51.0046J63.3248
N66X46.5294Y27.4458I56.5929J69.8549
N67X60.0465Y25.8906I59.6724J82.1616
N68X82.4916Y29.0645I59.3555J111.7274
N69X95.2441Y33.1505I45.2921J167.1092
N70X120.2201Y43.0886I-211.4218J840.2011
N71G2X133.0373Y47.5914I181.2676J-110.1904
N72X141.7908Y49.6766I154.2707J-22.1280
N73X159.4926Y49.3807I149.8569J2.5767
N74X172.5836Y45.6647I143.2948J-32.5976
N75X181.0395Y42.3277I114.3888J-114.1812
N76X197.3058Y34.7496I63.6313J-230.9345
N77G0Z25.0; Retract
N78G0X213.2344Y26.7334
N79Z0.07
N80G1Z-45.0F25.4; Plunge
N81G3X229.4628Y19.1806I345.3686J289.4344F76.2
N82X264.2291Y8.8077I290.2900J159.6035
N83X325.3301Y18.4172I280.9579J101.4969
N84X344.3836Y30.8266I275.4556J115.8267
N85X362.8351Y55.1978I305.2277J79.6421
N86X368.2363Y72.2554I275.8336J92.1302
N87X369.9396Y81.3064I227.2803J103.4683
N88X372.0452Y99.9172I122.2029J118.7590
N89X374.4043Y154.7646I-330.9897J157.6317
N90X371.8105Y199.0352I1.7382J155.1413
N91X365.2307Y234.3889I88.8126J164.6541
N92X361.1105Y247.3759I250.5989J205.1687
N93X355.0739Y259.2848I298.9392J223.3460
N94X343.0485Y272.3575I307.5507J227.6358
N95X323.3941Y284.0272I290.4121J206.0925
N96X261.7294Y290.5672I282.4777J192.2159
N97X239.9567Y284.4895I291.6022J141.5135
N98X223.2523Y277.7386I317.3564J68.9296
N99X198.9339Y266.3920I759.9675J-904.2999
N100G2X178.2634Y257.7469I86.9669J505.0722
N101X165.3385Y254.0326I143.9840J352.6856
N102X143.0292Y252.9074I150.4475J327.5549
N103X112.1843Y260.4808I154.3248J365.5118
N104G3X91.2675Y268.5688I5.5321J15.7523
N105X60.3994Y272.2620I66.6604J193.7462
N106X29.1667Y265.2906I68.2928J163.4491
N107X24.3373Y260.9499I32.6906J256.5132
N108X22.7851Y256.4663I37.4548J253.8979
N109X25.2372Y241.5541I45.4972J252.5434
N110X31.8119Y235.6891I37.1141J248.2506
N111X36.0947Y234.2336I42.4068J259.8348
N112X47.8849Y231.8033I82.2017J428.1062
N113G2X57.2063Y229.2867I27.4739J137.6810
N114X72.9616Y220.5838I46.1955J190.7404
N115X80.6534Y207.0118I54.6892J201.2624
N116X80.2001Y190.8602I51.7695J199.7404
N117X74.2403Y181.7073I58.4925J198.4781
N118X69.0431Y177.2649I40.0444J216.4523
N119X65.2571Y174.5117I17.9618J243.5281
N120X62.3715Y173.5950I62.3715J178.5950
N121G1X24.5903
N122G3X19.5903Y168.5950I24.5903J168.5950
N123G1Y130.3371
N124G3X21.2758Y126.5936I24.5903J130.3371
N125X28.9208Y121.6683I39.8961J147.1000
N126G2X31.2583Y119.5362I25.8627J115.9680
N127X32.1570Y116.3892I25.0329J116.0567
N128X31.9504Y111.5253I8.6007J114.9532
N129X29.0181Y100.3113I-14.4688J117.6731
N130X23.4084Y88.2181I-88.1088J147.2954
N131G3X19.7299Y80.2224I126.1285J36.1164
N132X17.3211Y53.6176I58.1442J63.3330
N133X31.9904Y33.8754I51.0046J63.3248
N134X46.5294Y27.4458I56.5929J69.8549
N135X60.0465Y25.8906I59.6724J82.1616
N136X82.4916Y29.0645I59.3555J111.7274
N137X95.2441Y33.1505I45.2921J167.1092
N138X120.2201Y43.0886I-211.4218J840.2011
N139G2X133.0373Y47.5914I181.2676J-110.1904
N140X141.7908Y49.6766I154.2707J-22.1280
N141X159.4926Y49.3807I149.8569J2.5767
N142X172.5836Y45.6647I143.2948J-32.5976
N143X181.0395Y42.3277I114.3888J-114.1812
N144X197.3058Y34.7496I63.6313J-230.9345
N145G0Z25.0; Retract
N146G0X197.3066Y34.7492
N147Z0.07
N148G1Z-25.0F25.4; Plunge
N149G3X213.2337Y26.7337I51472.2989J101900.7520F76.2
N150G0Z25.0; Retract
N151G0X197.3066Y34.7492
N152Z0.07
N153G1Z-45.0F25.4; Plunge
N154G3X213.2337Y26.7337I51472.2989J101900.7520F76.2
N155G0Z25.0; Retract

N0; Post Processor: proLIGHT 1000 Single Tool
N1; Material Type: Wood
N2; Material Size: X400.0000 Y300.0000 Z50.0000
N3; Material Origin: X0.0000 Y0.0000 Z0.0000
N4; Units: Metric
N5G05
N6;Engrave, Toolpath #1
N7S5000.0
N8M03
N9G0Z25.0; Retract
N10G0X65.2571Y174.5117
N11Z0.07
N12G1Z-25.0F25.4; Plunge
N13G2X62.3715Y173.5950I62.3715J178.5950F76.2
N14G1X24.5903
N15G3X19.5903Y168.5950I24.5903J168.5950
N16G1Y130.3371
N17G3X21.2758Y126.5936I24.5903J130.3371
N18G0Z25.0; Retract
N19G0X65.2571Y174.5117
N20Z0.07
N21G1Z-45.0F25.4; Plunge
N22G2X62.3715Y173.5950I62.3715J178.5950F76.2
N23G1X24.5903
N24G3X19.5903Y168.5950I24.5903J168.5950
N25G1Y130.3371
N26G3X21.2758Y126.5936I24.5903J130.3371
N27G0Z25.0; Retract
N28G0X0.0Y297.0
N29Z0.07
N30G1Z-25.0F25.4; Plunge
N31G1X400.0F76.2
N32G0Z25.0; Retract
N33G0X0.0
N34Z0.07
N35G1Z-45.0F25.4; Plunge
N36G1X400.0F76.2
N37G0Z25.0; Retract
N38G0X0.0Y294.0
N39Z0.07
N40G1Z-25.0F25.4; Plunge
N41G1X400.0F76.2
N42G0Z25.0; Retract
N43G0X0.0
N44Z0.07
N45G1Z-45.0F25.4; Plunge
N46G1X400.0F76.2
N47G0Z25.0; Retract
N48G0X0.0Y291.0
N49Z0.07
N50G1Z-25.0F25.4; Plunge
N51G1X264.0452F76.2
N52G0Z25.0; Retract
N53G0X0.0
N54Z0.07
N55G1Z-45.0F25.4; Plunge
N56G1X264.0452F76.2
N57G0Z25.0; Retract
N58G0X0.0Y288.0
N59Z0.07
N60G1Z-25.0F25.4; Plunge
N61G1X250.9857F76.2
N62G0Z25.0; Retract
N63G0X0.0
N64Z0.07
N65G1Z-45.0F25.4; Plunge
N66G1X250.9857F76.2
N67G0Z25.0; Retract
N68G0X0.0Y285.0
N69Z0.07
N70G1Z-25.0F25.4; Plunge
N71G1X241.4129F76.2
N72G0Z25.0; Retract
N73G0X0.0
N74Z0.07
N75G1Z-45.0F25.4; Plunge
N76G1X241.4129F76.2
N77G0Z25.0; Retract
N78G0X0.0Y282.0
N79Z0.07
N80G1Z-25.0F25.4; Plunge
N81G1X233.3358F76.2
N82G0Z25.0; Retract
N83G0X0.0
N84Z0.07
N85G1Z-45.0F25.4; Plunge
N86G1X233.3358F76.2
N87G0Z25.0; Retract
N88G0X0.0Y279.0
N89Z0.07
N90G1Z-25.0F25.4; Plunge
N91G1X226.1209F76.2
N92G0Z25.0; Retract
N93G0X0.0
N94Z0.07
N95G1Z-45.0F25.4; Plunge
N96G1X226.1209F76.2
N97G0Z25.0; Retract
N98G0X0.0Y276.0
N99Z0.07
N100G1Z-25.0F25.4; Plunge
N101G1X219.4074F76.2
N102G0Z25.0; Retract
N103G0X0.0
N104Z0.07
N105G1Z-45.0F25.4; Plunge
N106G1X219.4074F76.2
N107G0Z25.0; Retract
N108G0X0.0Y273.0
N109Z0.07
N110G1Z-25.0F25.4; Plunge
N111G1X212.9657F76.2
N112G0Z25.0; Retract
N113G0X0.0
N114Z0.07
N115G1Z-45.0F25.4; Plunge
N116G1X212.9657F76.2
N117G0Z25.0; Retract
N118G0X0.0Y270.0
N119Z0.07
N120G1Z-25.0F25.4; Plunge
N121G1X44.8712F76.2
N122G0Z25.0; Retract
N123G0X0.0
N124Z0.07
N125G1Z-45.0F25.4; Plunge
N126G1X44.8712F76.2
N127G0Z25.0; Retract
N128G0X0.0Y267.0
N129Z0.07
N130G1Z-25.0F25.4; Plunge
N131G1X33.9159F76.2
N132G0Z25.0; Retract
N133G0X0.0
N134Z0.07
N135G1Z-45.0F25.4; Plunge
N136G1X33.9159F76.2
N137G0Z25.0; Retract
N138G0X0.0Y264.0
N139Z0.07
N140G1Z-25.0F25.4; Plunge
N141G1X26.9126F76.2
N142G0Z25.0; Retract
N143G0X0.0
N144Z0.07
N145G1Z-45.0F25.4; Plunge
N146G1X26.9126F76.2
N147G0Z25.0; Retract
N148G0X0.0Y261.0
N149Z0.07
N150G1Z-25.0F25.4; Plunge
N151G1X24.3653F76.2
N152G0Z25.0; Retract
N153G0X0.0
N154Z0.07
N155G1Z-45.0F25.4; Plunge
N156G1X24.3653F76.2
N157G0Z25.0; Retract
N158G0X0.0Y258.0
N159Z0.07
N160G1Z-25.0F25.4; Plunge
N161G1X23.1427F76.2
N162G0Z25.0; Retract
N163G0X0.0
N164Z0.07
N165G1Z-45.0F25.4; Plunge
N166G1X23.1427F76.2
N167G0Z25.0; Retract
N168G0X0.0Y255.0
N169Z0.07
N170G1Z-25.0F25.4; Plunge
N171G1X22.5695F76.2
N172G0Z25.0; Retract
N173G0X0.0
N174Z0.07
N175G1Z-45.0F25.4; Plunge
N176G1X22.5695F76.2
N177G0Z25.0; Retract
N178G0X0.0Y252.0
N179Z0.07
N180G1Z-25.0F25.4; Plunge
N181G1X22.4522F76.2
N182G0Z25.0; Retract
N183G0X0.0
N184Z0.07
N185G1Z-45.0F25.4; Plunge
N186G1X22.4522F76.2
N187G0Z25.0; Retract
N188G0X0.0Y249.0
N189Z0.07
N190G1Z-25.0F25.4; Plunge
N191G1X22.7234F76.2
N192G0Z25.0; Retract
N193G0X0.0
N194Z0.07
N195G1Z-45.0F25.4; Plunge
N196G1X22.7234F76.2
N197G0Z25.0; Retract
N198G0X0.0Y246.0
N199Z0.07
N200G1Z-25.0F25.4; Plunge
N201G1X23.3811F76.2
N202G0Z25.0; Retract
N203G0X0.0
N204Z0.07
N205G1Z-45.0F25.4; Plunge
N206G1X23.3811F76.2
N207G0Z25.0; Retract
N208G0X0.0Y243.0
N209Z0.07
N210G1Z-25.0F25.4; Plunge
N211G1X24.4907F76.2
N212G0Z25.0; Retract
N213G0X0.0
N214Z0.07
N215G1Z-45.0F25.4; Plunge
N216G1X24.4907F76.2
N217G0Z25.0; Retract
N218G0X0.0Y240.0
N219Z0.07
N220G1Z-25.0F25.4; Plunge
N221G1X26.2598F76.2
N222G0Z25.0; Retract
N223G0X0.0
N224Z0.07
N225G1Z-45.0F25.4; Plunge
N226G1X26.2598F76.2
N227G0Z25.0; Retract
N228G0X0.0Y237.0
N229Z0.07
N230G1Z-25.0F25.4; Plunge
N231G1X29.4348F76.2
N232G0Z25.0; Retract
N233G0X0.0
N234Z0.07
N235G1Z-45.0F25.4; Plunge
N236G1X29.4348F76.2
N237G0Z25.0; Retract
N238G0X0.0Y234.0
N239Z0.07
N240G1Z-25.0F25.4; Plunge
N241G1X37.0461F76.2
N242G0Z25.0; Retract
N243G0X0.0
N244Z0.07
N245G1Z-45.0F25.4; Plunge
N246G1X37.0461F76.2
N247G0Z25.0; Retract
N248G0X0.0Y231.0
N249Z0.07
N250G1Z-25.0F25.4; Plunge
N251G1X51.2759F76.2
N252G0Z25.0; Retract
N253G0X0.0
N254Z0.07
N255G1Z-45.0F25.4; Plunge
N256G1X51.2759F76.2
N257G0Z25.0; Retract
N258G0X0.0Y228.0
N259Z0.07
N260G1Z-25.0F25.4; Plunge
N261G1X60.7521F76.2
N262G0Z25.0; Retract
N263G0X0.0
N264Z0.07
N265G1Z-45.0F25.4; Plunge
N266G1X60.7521F76.2
N267G0Z25.0; Retract
N268G0X0.0Y225.0
N269Z0.07
N270G1Z-25.0F25.4; Plunge
N271G1X66.9845F76.2
N272G0Z25.0; Retract
N273G0X0.0
N274Z0.07
N275G1Z-45.0F25.4; Plunge
N276G1X66.9845F76.2
N277G0Z25.0; Retract
N278G0X0.0Y222.0
N279Z0.07
N280G1Z-25.0F25.4; Plunge
N281G1X71.3467F76.2
N282G0Z25.0; Retract
N283G0X0.0
N284Z0.07
N285G1Z-45.0F25.4; Plunge
N286G1X71.3467F76.2
N287G0Z25.0; Retract
N288G0X0.0Y219.0
N289Z0.07
N290G1Z-25.0F25.4; Plunge
N291G1X74.5073F76.2
N292G0Z25.0; Retract
N293G0X0.0
N294Z0.07
N295G1Z-45.0F25.4; Plunge
N296G1X74.5073F76.2
N297G0Z25.0; Retract
N298G0X0.0Y216.0
N299Z0.07
N300G1Z-25.0F25.4; Plunge
N301G1X76.8282F76.2
N302G0Z25.0; Retract
N303G0X0.0
N304Z0.07
N305G1Z-45.0F25.4; Plunge
N306G1X76.8282F76.2
N307G0Z25.0; Retract
N308G0X0.0Y213.0
N309Z0.07
N310G1Z-25.0F25.4; Plunge
N311G1X78.5285F76.2
N312G0Z25.0; Retract
N313G0X0.0
N314Z0.07
N315G1Z-45.0F25.4; Plunge
N316G1X78.5285F76.2
N317G0Z25.0; Retract
N318G0X0.0Y210.0
N319Z0.07
N320G1Z-25.0F25.4; Plunge
N321G1X79.7712F76.2
N322G0Z25.0; Retract
N323G0X0.0
N324Z0.07
N325G1Z-45.0F25.4; Plunge
N326G1X79.7712F76.2
N327G0Z25.0; Retract
N328G0X0.0Y207.0
N329Z0.07
N330G1Z-25.0F25.4; Plunge
N331G1X80.6563F76.2
N332G0Z25.0; Retract
N333G0X0.0
N334Z0.07
N335G1Z-45.0F25.4; Plunge
N336G1X80.6563F76.2
N337G0Z25.0; Retract
N338G0X0.0Y204.0
N339Z0.07
N340G1Z-25.0F25.4; Plunge
N341G1X81.2327F76.2
N342G0Z25.0; Retract
N343G0X0.0
N344Z0.07
N345G1Z-45.0F25.4; Plunge
N346G1X81.2327F76.2
N347G0Z25.0; Retract
N348G0X0.0Y201.0
N349Z0.07
N350G1Z-25.0F25.4; Plunge
N351G1X81.5207F76.2
N352G0Z25.0; Retract
N353G0X0.0
N354Z0.07
N355G1Z-45.0F25.4; Plunge
N356G1X81.5207F76.2
N357G0Z25.0; Retract
N358G0X0.0Y198.0
N359Z0.07
N360G1Z-25.0F25.4; Plunge
N361G1X81.5207F76.2
N362G0Z25.0; Retract
N363G0X0.0
N364Z0.07
N365G1Z-45.0F25.4; Plunge
N366G1X81.5207F76.2
N367G0Z25.0; Retract
N368G0X0.0Y195.0
N369Z0.07
N370G1Z-25.0F25.4; Plunge
N371G1X81.2137F76.2
N372G0Z25.0; Retract
N373G0X0.0
N374Z0.07
N375G1Z-45.0F25.4; Plunge
N376G1X81.2137F76.2
N377G0Z25.0; Retract
N378G0X0.0Y192.0
N379Z0.07
N380G1Z-25.0F25.4; Plunge
N381G1X80.5567F76.2
N382G0Z25.0; Retract
N383G0X0.0
N384Z0.07
N385G1Z-45.0F25.4; Plunge
N386G1X80.5567F76.2
N387G0Z25.0; Retract
N388G0X0.0Y189.0
N389Z0.07
N390G1Z-25.0F25.4; Plunge
N391G1X79.4674F76.2
N392G0Z25.0; Retract
N393G0X0.0
N394Z0.07
N395G1Z-45.0F25.4; Plunge
N396G1X79.4674F76.2
N397G0Z25.0; Retract
N398G0X0.0Y186.0
N399Z0.07
N400G1Z-25.0F25.4; Plunge
N401G1X77.8068F76.2
N402G0Z25.0; Retract
N403G0X0.0
N404Z0.07
N405G1Z-45.0F25.4; Plunge
N406G1X77.8068F76.2
N407G0Z25.0; Retract
N408G0X0.0Y183.0
N409Z0.07
N410G1Z-25.0F25.4; Plunge
N411G1X75.4695F76.2
N412G0Z25.0; Retract
N413G0X0.0
N414Z0.07
N415G1Z-45.0F25.4; Plunge
N416G1X75.4695F76.2
N417G0Z25.0; Retract
N418G0X0.0Y180.0
N419Z0.07
N420G1Z-25.0F25.4; Plunge
N421G1X72.4125F76.2
N422G0Z25.0; Retract
N423G0X0.0
N424Z0.07
N425G1Z-45.0F25.4; Plunge
N426G1X72.4125F76.2
N427G0Z25.0; Retract
N428G0X0.0Y177.0
N429Z0.07
N430G1Z-25.0F25.4; Plunge
N431G1X68.6923F76.2
N432G0Z25.0; Retract
N433G0X0.0
N434Z0.07
N435G1Z-45.0F25.4; Plunge
N436G1X68.6923F76.2
N437G0Z25.0; Retract
N438G0X0.0Y174.0
N439Z0.07
N440G1Z-25.0F25.4; Plunge
N441G1X64.3428F76.2
N442G0Z25.0; Retract
N443G0X0.0
N444Z0.07
N445G1Z-45.0F25.4; Plunge
N446G1X64.3428F76.2
N447G0Z25.0; Retract
N448G0X0.0Y171.0
N449Z0.07
N450G1Z-25.0F25.4; Plunge
N451G1X20.2067F76.2
N452G0Z25.0; Retract
N453G0X0.0
N454Z0.07
N455G1Z-45.0F25.4; Plunge
N456G1X20.2067F76.2
N457G0Z25.0; Retract
N458G0X0.0Y168.0
N459Z0.07
N460G1Z-25.0F25.4; Plunge
N461G1X19.5903F76.2
N462G0Z25.0; Retract
N463G0X0.0
N464Z0.07
N465G1Z-45.0F25.4; Plunge
N466G1X19.5903F76.2
N467G0Z25.0; Retract
N468G0X0.0Y165.0
N469Z0.07
N470G1Z-25.0F25.4; Plunge
N471G1X19.5903F76.2
N472G0Z25.0; Retract
N473G0X0.0
N474Z0.07
N475G1Z-45.0F25.4; Plunge
N476G1X19.5903F76.2
N477G0Z25.0; Retract
N478G0X0.0Y162.0
N479Z0.07
N480G1Z-25.0F25.4; Plunge
N481G1X19.5903F76.2
N482G0Z25.0; Retract
N483G0X0.0
N484Z0.07
N485G1Z-45.0F25.4; Plunge
N486G1X19.5903F76.2
N487G0Z25.0; Retract
N488G0X0.0Y159.0
N489Z0.07
N490G1Z-25.0F25.4; Plunge
N491G1X19.5903F76.2
N492G0Z25.0; Retract
N493G0X0.0
N494Z0.07
N495G1Z-45.0F25.4; Plunge
N496G1X19.5903F76.2
N497G0Z25.0; Retract
N498G0X0.0Y156.0
N499Z0.07
N500G1Z-25.0F25.4; Plunge
N501G1X19.5903F76.2
N502G0Z25.0; Retract
N503G0X0.0
N504Z0.07
N505G1Z-45.0F25.4; Plunge
N506G1X19.5903F76.2
N507G0Z25.0; Retract
N508G0X0.0Y153.0
N509Z0.07
N510G1Z-25.0F25.4; Plunge
N511G1X19.5903F76.2
N512G0Z25.0; Retract
N513G0X0.0
N514Z0.07
N515G1Z-45.0F25.4; Plunge
N516G1X19.5903F76.2
N517G0Z25.0; Retract
N518G0X0.0Y150.0
N519Z0.07
N520G1Z-25.0F25.4; Plunge
N521G1X19.5903F76.2
N522G0Z25.0; Retract
N523G0X0.0
N524Z0.07
N525G1Z-45.0F25.4; Plunge
N526G1X19.5903F76.2
N527G0Z25.0; Retract
N528G0X0.0Y147.0
N529Z0.07
N530G1Z-25.0F25.4; Plunge
N531G1X19.5903F76.2
N532G0Z25.0; Retract
N533G0X0.0
N534Z0.07
N535G1Z-45.0F25.4; Plunge
N536G1X19.5903F76.2
N537G0Z25.0; Retract
N538G0X0.0Y144.0
N539Z0.07
N540G1Z-25.0F25.4; Plunge
N541G1X19.5903F76.2
N542G0Z25.0; Retract
N543G0X0.0
N544Z0.07
N545G1Z-45.0F25.4; Plunge
N546G1X19.5903F76.2
N547G0Z25.0; Retract
N548G0X0.0Y141.0
N549Z0.07
N550G1Z-25.0F25.4; Plunge
N551G1X19.5903F76.2
N552G0Z25.0; Retract
N553G0X0.0
N554Z0.07
N555G1Z-45.0F25.4; Plunge
N556G1X19.5903F76.2
N557G0Z25.0; Retract
N558G0X0.0Y138.0
N559Z0.07
N560G1Z-25.0F25.4; Plunge
N561G1X19.5903F76.2
N562G0Z25.0; Retract
N563G0X0.0
N564Z0.07
N565G1Z-45.0F25.4; Plunge
N566G1X19.5903F76.2
N567G0Z25.0; Retract
N568G0X0.0Y135.0
N569Z0.07
N570G1Z-25.0F25.4; Plunge
N571G1X19.5903F76.2
N572G0Z25.0; Retract
N573G0X0.0
N574Z0.07
N575G1Z-45.0F25.4; Plunge
N576G1X19.5903F76.2
N577G0Z25.0; Retract
N578G0X0.0Y132.0
N579Z0.07
N580G1Z-25.0F25.4; Plunge
N581G1X19.5903F76.2
N582G0Z25.0; Retract
N583G0X0.0
N584Z0.07
N585G1Z-45.0F25.4; Plunge
N586G1X19.5903F76.2
N587G0Z25.0; Retract
N588G0X0.0Y129.0
N589Z0.07
N590G1Z-25.0F25.4; Plunge
N591G1X19.7724F76.2
N592G0Z25.0; Retract
N593G0X0.0
N594Z0.07
N595G1Z-45.0F25.4; Plunge
N596G1X19.7724F76.2
N597G0Z25.0; Retract
N598G0X0.0Y126.0
N599Z0.07
N600G1Z-25.0F25.4; Plunge
N601G1X21.9594F76.2
N602G0Z25.0; Retract
N603G0X0.0
N604Z0.07
N605G1Z-45.0F25.4; Plunge
N606G1X21.9594F76.2
N607G0Z25.0; Retract
N608G0X0.0Y123.0
N609Z0.07
N610G1Z-25.0F25.4; Plunge
N611G1X26.3384F76.2
N612G0Z25.0; Retract
N613G0X0.0
N614Z0.07
N615G1Z-45.0F25.4; Plunge
N616G1X26.3384F76.2
N617G0Z25.0; Retract
N618G0X0.0Y120.0
N619Z0.07
N620G1Z-25.0F25.4; Plunge
N621G1X30.9478F76.2
N622G0Z25.0; Retract
N623G0X0.0
N624Z0.07
N625G1Z-45.0F25.4; Plunge
N626G1X30.9478F76.2
N627G0Z25.0; Retract
N628G0X0.0Y117.0
N629Z0.07
N630G1Z-25.0F25.4; Plunge
N631G1X32.0858F76.2
N632G0Z25.0; Retract
N633G0X0.0
N634Z0.07
N635G1Z-45.0F25.4; Plunge
N636G1X32.0858F76.2
N637G0Z25.0; Retract
N638G0X0.0Y114.0
N639Z0.07
N640G1Z-25.0F25.4; Plunge
N641G1X32.1818F76.2
N642G0Z25.0; Retract
N643G0X0.0
N644Z0.07
N645G1Z-45.0F25.4; Plunge
N646G1X32.1818F76.2
N647G0Z25.0; Retract
N648G0X0.0Y111.0
N649Z0.07
N650G1Z-25.0F25.4; Plunge
N651G1X31.8804F76.2
N652G0Z25.0; Retract
N653G0X0.0
N654Z0.07
N655G1Z-45.0F25.4; Plunge
N656G1X31.8804F76.2
N657G0Z25.0; Retract
N658G0X0.0Y108.0
N659Z0.07
N660G1Z-25.0F25.4; Plunge
N661G1X31.3497F76.2
N662G0Z25.0; Retract
N663G0X0.0
N664Z0.07
N665G1Z-45.0F25.4; Plunge
N666G1X31.3497F76.2
N667G0Z25.0; Retract
N668G0X0.0Y105.0
N669Z0.07
N670G1Z-25.0F25.4; Plunge
N671G1X30.5999F76.2
N672G0Z25.0; Retract
N673G0X0.0
N674Z0.07
N675G1Z-45.0F25.4; Plunge
N676G1X30.5999F76.2
N677G0Z25.0; Retract
N678G0X0.0Y102.0
N679Z0.07
N680G1Z-25.0F25.4; Plunge
N681G1X29.6418F76.2
N682G0Z25.0; Retract
N683G0X0.0
N684Z0.07
N685G1Z-45.0F25.4; Plunge
N686G1X29.6418F76.2
N687G0Z25.0; Retract
N688G0X0.0Y99.0
N689Z0.07
N690G1Z-25.0F25.4; Plunge
N691G1X28.4958F76.2
N692G0Z25.0; Retract
N693G0X0.0
N694Z0.07
N695G1Z-45.0F25.4; Plunge
N696G1X28.4958F76.2
N697G0Z25.0; Retract
N698G0X0.0Y96.0
N699Z0.07
N700G1Z-25.0F25.4; Plunge
N701G1X27.1931F76.2
N702G0Z25.0; Retract
N703G0X0.0
N704Z0.07
N705G1Z-45.0F25.4; Plunge
N706G1X27.1931F76.2
N707G0Z25.0; Retract
N708G0X0.0Y93.0
N709Z0.07
N710G1Z-25.0F25.4; Plunge
N711G1X25.7756F76.2
N712G0Z25.0; Retract
N713G0X0.0
N714Z0.07
N715G1Z-45.0F25.4; Plunge
N716G1X25.7756F76.2
N717G0Z25.0; Retract
N718G0X0.0Y90.0
N719Z0.07
N720G1Z-25.0F25.4; Plunge
N721G1X24.2946F76.2
N722G0Z25.0; Retract
N723G0X0.0
N724Z0.07
N725G1Z-45.0F25.4; Plunge
N726G1X24.2946F76.2
N727G0Z25.0; Retract
N728G0X0.0Y87.0
N729Z0.07
N730G1Z-25.0F25.4; Plunge
N731G1X22.8078F76.2
N732G0Z25.0; Retract
N733G0X0.0
N734Z0.07
N735G1Z-45.0F25.4; Plunge
N736G1X22.8078F76.2
N737G0Z25.0; Retract
N738G0X0.0Y84.0
N739Z0.07
N740G1Z-25.0F25.4; Plunge
N741G1X21.3742F76.2
N742G0Z25.0; Retract
N743G0X0.0
N744Z0.07
N745G1Z-45.0F25.4; Plunge
N746G1X21.3742F76.2
N747G0Z25.0; Retract
N748G0X0.0Y81.0
N749Z0.07
N750G1Z-25.0F25.4; Plunge
N751G1X20.0494F76.2
N752G0Z25.0; Retract
N753G0X0.0
N754Z0.07
N755G1Z-45.0F25.4; Plunge
N756G1X20.0494F76.2
N757G0Z25.0; Retract
N758G0X0.0Y78.0
N759Z0.07
N760G1Z-25.0F25.4; Plunge
N761G1X18.8812F76.2
N762G0Z25.0; Retract
N763G0X0.0
N764Z0.07
N765G1Z-45.0F25.4; Plunge
N766G1X18.8812F76.2
N767G0Z25.0; Retract
N768G0X0.0Y75.0
N769Z0.07
N770G1Z-25.0F25.4; Plunge
N771G1X17.9070F76.2
N772G0Z25.0; Retract
N773G0X0.0
N774Z0.07
N775G1Z-45.0F25.4; Plunge
N776G1X17.9070F76.2
N777G0Z25.0; Retract
N778G0X0.0Y72.0
N779Z0.07
N780G1Z-25.0F25.4; Plunge
N781G1X17.1500F76.2
N782G0Z25.0; Retract
N783G0X0.0
N784Z0.07
N785G1Z-45.0F25.4; Plunge
N786G1X17.1500F76.2
N787G0Z25.0; Retract
N788G0X0.0Y69.0
N789Z0.07
N790G1Z-25.0F25.4; Plunge
N791G1X16.6086F76.2
N792G0Z25.0; Retract
N793G0X0.0
N794Z0.07
N795G1Z-45.0F25.4; Plunge
N796G1X16.6086F76.2
N797G0Z25.0; Retract
N798G0X0.0Y66.0
N799Z0.07
N800G1Z-25.0F25.4; Plunge
N801G1X16.2780F76.2
N802G0Z25.0; Retract
N803G0X0.0
N804Z0.07
N805G1Z-45.0F25.4; Plunge
N806G1X16.2780F76.2
N807G0Z25.0; Retract
N808G0X0.0Y63.0
N809Z0.07
N810G1Z-25.0F25.4; Plunge
N811G1X16.1607F76.2
N812G0Z25.0; Retract
N813G0X0.0
N814Z0.07
N815G1Z-45.0F25.4; Plunge
N816G1X16.1607F76.2
N817G0Z25.0; Retract
N818G0X0.0Y60.0
N819Z0.07
N820G1Z-25.0F25.4; Plunge
N821G1X16.2662F76.2
N822G0Z25.0; Retract
N823G0X0.0
N824Z0.07
N825G1Z-45.0F25.4; Plunge
N826G1X16.2662F76.2
N827G0Z25.0; Retract
N828G0X0.0Y57.0
N829Z0.07
N830G1Z-25.0F25.4; Plunge
N831G1X16.6113F76.2
N832G0Z25.0; Retract
N833G0X0.0
N834Z0.07
N835G1Z-45.0F25.4; Plunge
N836G1X16.6113F76.2
N837G0Z25.0; Retract
N838G0X0.0Y54.0
N839Z0.07
N840G1Z-25.0F25.4; Plunge
N841G1X17.2223F76.2
N842G0Z25.0; Retract
N843G0X0.0
N844Z0.07
N845G1Z-45.0F25.4; Plunge
N846G1X17.2223F76.2
N847G0Z25.0; Retract
N848G0X0.0Y51.0
N849Z0.07
N850G1Z-25.0F25.4; Plunge
N851G1X18.1381F76.2
N852G0Z25.0; Retract
N853G0X0.0
N854Z0.07
N855G1Z-45.0F25.4; Plunge
N856G1X18.1381F76.2
N857G0Z25.0; Retract
N858G0X0.0Y48.0
N859Z0.07
N860G1Z-25.0F25.4; Plunge
N861G1X19.4129F76.2
N862G0Z25.0; Retract
N863G0X0.0
N864Z0.07
N865G1Z-45.0F25.4; Plunge
N866G1X19.4129F76.2
N867G0Z25.0; Retract
N868G0X0.0Y45.0
N869Z0.07
N870G1Z-25.0F25.4; Plunge
N871G1X21.0903F76.2
N872G0Z25.0; Retract
N873G0X0.0
N874Z0.07
N875G1Z-45.0F25.4; Plunge
N876G1X21.0903F76.2
N877G0Z25.0; Retract
N878G0X0.0Y42.0
N879Z0.07
N880G1Z-25.0F25.4; Plunge
N881G1X23.2159F76.2
N882G0Z25.0; Retract
N883G0X0.0
N884Z0.07
N885G1Z-45.0F25.4; Plunge
N886G1X23.2159F76.2
N887G0Z25.0; Retract
N888G0X0.0Y39.0
N889Z0.07
N890G1Z-25.0F25.4; Plunge
N891G1X25.8619F76.2
N892G0Z25.0; Retract
N893G0X0.0
N894Z0.07
N895G1Z-45.0F25.4; Plunge
N896G1X25.8619F76.2
N897G0Z25.0; Retract
N898G0X0.0Y36.0
N899Z0.07
N900G1Z-25.0F25.4; Plunge
N901G1X29.1511F76.2
N902G0Z25.0; Retract
N903G0X0.0
N904Z0.07
N905G1Z-45.0F25.4; Plunge
N906G1X29.1511F76.2
N907G0Z25.0; Retract
N908G0X0.0Y33.0
N909Z0.07
N910G1Z-25.0F25.4; Plunge
N911G1X33.3208F76.2
N912G0Z25.0; Retract
N913G0X0.0
N914Z0.07
N915G1Z-45.0F25.4; Plunge
N916G1X33.3208F76.2
N917G0Z25.0; Retract
N918G0X0.0Y30.0
N919Z0.07
N920G1Z-25.0F25.4; Plunge
N921G1X38.9578F76.2
N922G0Z25.0; Retract
N923G0X0.0
N924Z0.07
N925G1Z-45.0F25.4; Plunge
N926G1X38.9578F76.2
N927G0Z25.0; Retract
N928G0X0.0Y27.0
N929Z0.07
N930G1Z-25.0F25.4; Plunge
N931G1X48.5270F76.2
N932G0Z25.0; Retract
N933G0X0.0
N934Z0.07
N935G1Z-45.0F25.4; Plunge
N936G1X48.5270F76.2
N937G0Z25.0; Retract
N938G0X0.0Y24.0
N939Z0.07
N940G1Z-25.0F25.4; Plunge
N941G1X218.8289F76.2
N942G0Z25.0; Retract
N943G0X0.0
N944Z0.07
N945G1Z-45.0F25.4; Plunge
N946G1X218.8289F76.2
N947G0Z25.0; Retract
N948G0X0.0Y21.0
N949Z0.07
N950G1Z-25.0F25.4; Plunge
N951G1X225.2892F76.2
N952G0Z25.0; Retract
N953G0X0.0
N954Z0.07
N955G1Z-45.0F25.4; Plunge
N956G1X225.2892F76.2
N957G0Z25.0; Retract
N958G0X0.0Y18.0
N959Z0.07
N960G1Z-25.0F25.4; Plunge
N961G1X232.3160F76.2
N962G0Z25.0; Retract
N963G0X0.0
N964Z0.07
N965G1Z-45.0F25.4; Plunge
N966G1X232.3160F76.2
N967G0Z25.0; Retract
N968G0X0.0Y15.0
N969Z0.07
N970G1Z-25.0F25.4; Plunge
N971G1X240.2821F76.2
N972G0Z25.0; Retract
N973G0X0.0
N974Z0.07
N975G1Z-45.0F25.4; Plunge
N976G1X240.2821F76.2
N977G0Z25.0; Retract
N978G0X0.0Y12.0
N979Z0.07
N980G1Z-25.0F25.4; Plunge
N981G1X249.8373F76.2
N982G0Z25.0; Retract
N983G0X0.0
N984Z0.07
N985G1Z-45.0F25.4; Plunge
N986G1X249.8373F76.2
N987G0Z25.0; Retract
N988G0X0.0Y9.0
N989Z0.07
N990G1Z-25.0F25.4; Plunge
N991G1X263.0818F76.2
N992G0Z25.0; Retract
N993G0X0.0
N994Z0.07
N995G1Z-45.0F25.4; Plunge
N996G1X263.0818F76.2
N997G0Z25.0; Retract
N998G0X0.0Y6.0
N999Z0.07
N1000G1Z-25.0F25.4; Plunge
N1001G1X400.0F76.2
N1002G0Z25.0; Retract
N1003G0X0.0
N1004Z0.07
N1005G1Z-45.0F25.4; Plunge
N1006G1X400.0F76.2
N1007G0Z25.0; Retract
N1008G0X0.0Y3.0
N1009Z0.07
N1010G1Z-25.0F25.4; Plunge
N1011G1X400.0F76.2
N1012G0Z25.0; Retract
N1013G0X0.0
N1014Z0.07
N1015G1Z-45.0F25.4; Plunge
N1016G1X400.0F76.2
N1017G0Z25.0; Retract
N1018G0X86.4330Y270.0
N1019Z0.07
N1020G1Z-25.0F25.4; Plunge
N1021G1X206.6280F76.2
N1022G0Z25.0; Retract
N1023G0X86.4330
N1024Z0.07
N1025G1Z-45.0F25.4; Plunge
N1026G1X206.6280F76.2
N1027G0Z25.0; Retract
N1028G0X95.7528Y267.0
N1029Z0.07
N1030G1Z-25.0F25.4; Plunge
N1031G1X200.2462F76.2
N1032G0Z25.0; Retract
N1033G0X95.7528
N1034Z0.07
N1035G1Z-45.0F25.4; Plunge
N1036G1X200.2462F76.2
N1037G0Z25.0; Retract
N1038G0X103.3982Y264.0
N1039Z0.07
N1040G1Z-25.0F25.4; Plunge
N1041G1X193.6635F76.2
N1042G0Z25.0; Retract
N1043G0X103.3982
N1044Z0.07
N1045G1Z-45.0F25.4; Plunge
N1046G1X193.6635F76.2
N1047G0Z25.0; Retract
N1048G0X110.8462Y261.0
N1049Z0.07
N1050G1Z-25.0F25.4; Plunge
N1051G1X186.6791F76.2
N1052G0Z25.0; Retract
N1053G0X110.8462
N1054Z0.07
N1055G1Z-45.0F25.4; Plunge
N1056G1X186.6791F76.2
N1057G0Z25.0; Retract
N1058G0X119.1246Y258.0
N1059Z0.07
N1060G1Z-25.0F25.4; Plunge
N1061G1X178.9686F76.2
N1062G0Z25.0; Retract
N1063G0X119.1246
N1064Z0.07
N1065G1Z-45.0F25.4; Plunge
N1066G1X178.9686F76.2
N1067G0Z25.0; Retract
N1068G0X129.9337Y255.0
N1069Z0.07
N1070G1Z-25.0F25.4; Plunge
N1071G1X169.4562F76.2
N1072G0Z25.0; Retract
N1073G0X129.9337
N1074Z0.07
N1075G1Z-45.0F25.4; Plunge
N1076G1X169.4562F76.2
N1077G0Z25.0; Retract
N1078G0X359.1216Y252.0
N1079Z0.07
N1080G1Z-25.0F25.4; Plunge
N1081G1X400.0F76.2
N1082G0Z25.0; Retract
N1083G0X359.1216
N1084Z0.07
N1085G1Z-45.0F25.4; Plunge
N1086G1X400.0F76.2
N1087G0Z25.0; Retract
N1088G0X360.4528Y249.0
N1089Z0.07
N1090G1Z-25.0F25.4; Plunge
N1091G1X400.0F76.2
N1092G0Z25.0; Retract
N1093G0X360.4528
N1094Z0.07
N1095G1Z-45.0F25.4; Plunge
N1096G1X400.0F76.2
N1097G0Z25.0; Retract
N1098G0X361.6370Y246.0
N1099Z0.07
N1100G1Z-25.0F25.4; Plunge
N1101G1X400.0F76.2
N1102G0Z25.0; Retract
N1103G0X361.6370
N1104Z0.07
N1105G1Z-45.0F25.4; Plunge
N1106G1X400.0F76.2
N1107G0Z25.0; Retract
N1108G0X362.6981Y243.0
N1109Z0.07
N1110G1Z-25.0F25.4; Plunge
N1111G1X400.0F76.2
N1112G0Z25.0; Retract
N1113G0X362.6981
N1114Z0.07
N1115G1Z-45.0F25.4; Plunge
N1116G1X400.0F76.2
N1117G0Z25.0; Retract
N1118G0X363.6565Y240.0
N1119Z0.07
N1120G1Z-25.0F25.4; Plunge
N1121G1X400.0F76.2
N1122G0Z25.0; Retract
N1123G0X363.6565
N1124Z0.07
N1125G1Z-45.0F25.4; Plunge
N1126G1X400.0F76.2
N1127G0Z25.0; Retract
N1128G0X364.5292Y237.0
N1129Z0.07
N1130G1Z-25.0F25.4; Plunge
N1131G1X400.0F76.2
N1132G0Z25.0; Retract
N1133G0X364.5292
N1134Z0.07
N1135G1Z-45.0F25.4; Plunge
N1136G1X400.0F76.2
N1137G0Z25.0; Retract
N1138G0X365.3311Y234.0
N1139Z0.07
N1140G1Z-25.0F25.4; Plunge
N1141G1X400.0F76.2
N1142G0Z25.0; Retract
N1143G0X365.3311
N1144Z0.07
N1145G1Z-45.0F25.4; Plunge
N1146G1X400.0F76.2
N1147G0Z25.0; Retract
N1148G0X366.0758Y231.0
N1149Z0.07
N1150G1Z-25.0F25.4; Plunge
N1151G1X400.0F76.2
N1152G0Z25.0; Retract
N1153G0X366.0758
N1154Z0.07
N1155G1Z-45.0F25.4; Plunge
N1156G1X400.0F76.2
N1157G0Z25.0; Retract
N1158G0X366.7757Y228.0
N1159Z0.07
N1160G1Z-25.0F25.4; Plunge
N1161G1X400.0F76.2
N1162G0Z25.0; Retract
N1163G0X366.7757
N1164Z0.07
N1165G1Z-45.0F25.4; Plunge
N1166G1X400.0F76.2
N1167G0Z25.0; Retract
N1168G0X367.4398Y225.0
N1169Z0.07
N1170G1Z-25.0F25.4; Plunge
N1171G1X400.0F76.2
N1172G0Z25.0; Retract
N1173G0X367.4398
N1174Z0.07
N1175G1Z-45.0F25.4; Plunge
N1176G1X400.0F76.2
N1177G0Z25.0; Retract
N1178G0X368.0696Y222.0
N1179Z0.07
N1180G1Z-25.0F25.4; Plunge
N1181G1X400.0F76.2
N1182G0Z25.0; Retract
N1183G0X368.0696
N1184Z0.07
N1185G1Z-45.0F25.4; Plunge
N1186G1X400.0F76.2
N1187G0Z25.0; Retract
N1188G0X368.6657Y219.0
N1189Z0.07
N1190G1Z-25.0F25.4; Plunge
N1191G1X400.0F76.2
N1192G0Z25.0; Retract
N1193G0X368.6657
N1194Z0.07
N1195G1Z-45.0F25.4; Plunge
N1196G1X400.0F76.2
N1197G0Z25.0; Retract
N1198G0X369.2285Y216.0
N1199Z0.07
N1200G1Z-25.0F25.4; Plunge
N1201G1X400.0F76.2
N1202G0Z25.0; Retract
N1203G0X369.2285
N1204Z0.07
N1205G1Z-45.0F25.4; Plunge
N1206G1X400.0F76.2
N1207G0Z25.0; Retract
N1208G0X369.7586Y213.0
N1209Z0.07
N1210G1Z-25.0F25.4; Plunge
N1211G1X400.0F76.2
N1212G0Z25.0; Retract
N1213G0X369.7586
N1214Z0.07
N1215G1Z-45.0F25.4; Plunge
N1216G1X400.0F76.2
N1217G0Z25.0; Retract
N1218G0X370.2564Y210.0
N1219Z0.07
N1220G1Z-25.0F25.4; Plunge
N1221G1X400.0F76.2
N1222G0Z25.0; Retract
N1223G0X370.2564
N1224Z0.07
N1225G1Z-45.0F25.4; Plunge
N1226G1X400.0F76.2
N1227G0Z25.0; Retract
N1228G0X370.7225Y207.0
N1229Z0.07
N1230G1Z-25.0F25.4; Plunge
N1231G1X400.0F76.2
N1232G0Z25.0; Retract
N1233G0X370.7225
N1234Z0.07
N1235G1Z-45.0F25.4; Plunge
N1236G1X400.0F76.2
N1237G0Z25.0; Retract
N1238G0X371.1575Y204.0
N1239Z0.07
N1240G1Z-25.0F25.4; Plunge
N1241G1X400.0F76.2
N1242G0Z25.0; Retract
N1243G0X371.1575
N1244Z0.07
N1245G1Z-45.0F25.4; Plunge
N1246G1X400.0F76.2
N1247G0Z25.0; Retract
N1248G0X371.5619Y201.0
N1249Z0.07
N1250G1Z-25.0F25.4; Plunge
N1251G1X400.0F76.2
N1252G0Z25.0; Retract
N1253G0X371.5619
N1254Z0.07
N1255G1Z-45.0F25.4; Plunge
N1256G1X400.0F76.2
N1257G0Z25.0; Retract
N1258G0X371.9364Y198.0
N1259Z0.07
N1260G1Z-25.0F25.4; Plunge
N1261G1X400.0F76.2
N1262G0Z25.0; Retract
N1263G0X371.9364
N1264Z0.07
N1265G1Z-45.0F25.4; Plunge
N1266G1X400.0F76.2
N1267G0Z25.0; Retract
N1268G0X372.2815Y195.0
N1269Z0.07
N1270G1Z-25.0F25.4; Plunge
N1271G1X400.0F76.2
N1272G0Z25.0; Retract
N1273G0X372.2815
N1274Z0.07
N1275G1Z-45.0F25.4; Plunge
N1276G1X400.0F76.2
N1277G0Z25.0; Retract
N1278G0X372.5979Y192.0
N1279Z0.07
N1280G1Z-25.0F25.4; Plunge
N1281G1X400.0F76.2
N1282G0Z25.0; Retract
N1283G0X372.5979
N1284Z0.07
N1285G1Z-45.0F25.4; Plunge
N1286G1X400.0F76.2
N1287G0Z25.0; Retract
N1288G0X372.8862Y189.0
N1289Z0.07
N1290G1Z-25.0F25.4; Plunge
N1291G1X400.0F76.2
N1292G0Z25.0; Retract
N1293G0X372.8862
N1294Z0.07
N1295G1Z-45.0F25.4; Plunge
N1296G1X400.0F76.2
N1297G0Z25.0; Retract
N1298G0X373.1471Y186.0
N1299Z0.07
N1300G1Z-25.0F25.4; Plunge
N1301G1X400.0F76.2
N1302G0Z25.0; Retract
N1303G0X373.1471
N1304Z0.07
N1305G1Z-45.0F25.4; Plunge
N1306G1X400.0F76.2
N1307G0Z25.0; Retract
N1308G0X373.3812Y183.0
N1309Z0.07
N1310G1Z-25.0F25.4; Plunge
N1311G1X400.0F76.2
N1312G0Z25.0; Retract
N1313G0X373.3812
N1314Z0.07
N1315G1Z-45.0F25.4; Plunge
N1316G1X400.0F76.2
N1317G0Z25.0; Retract
N1318G0X373.5893Y180.0
N1319Z0.07
N1320G1Z-25.0F25.4; Plunge
N1321G1X400.0F76.2
N1322G0Z25.0; Retract
N1323G0X373.5893
N1324Z0.07
N1325G1Z-45.0F25.4; Plunge
N1326G1X400.0F76.2
N1327G0Z25.0; Retract
N1328G0X373.7720Y177.0
N1329Z0.07
N1330G1Z-25.0F25.4; Plunge
N1331G1X400.0F76.2
N1332G0Z25.0; Retract
N1333G0X373.7720
N1334Z0.07
N1335G1Z-45.0F25.4; Plunge
N1336G1X400.0F76.2
N1337G0Z25.0; Retract
N1338G0X373.9300Y174.0
N1339Z0.07
N1340G1Z-25.0F25.4; Plunge
N1341G1X400.0F76.2
N1342G0Z25.0; Retract
N1343G0X373.9300
N1344Z0.07
N1345G1Z-45.0F25.4; Plunge
N1346G1X400.0F76.2
N1347G0Z25.0; Retract
N1348G0X374.0640Y171.0
N1349Z0.07
N1350G1Z-25.0F25.4; Plunge
N1351G1X400.0F76.2
N1352G0Z25.0; Retract
N1353G0X374.0640
N1354Z0.07
N1355G1Z-45.0F25.4; Plunge
N1356G1X400.0F76.2
N1357G0Z25.0; Retract
N1358G0X374.1747Y168.0
N1359Z0.07
N1360G1Z-25.0F25.4; Plunge
N1361G1X400.0F76.2
N1362G0Z25.0; Retract
N1363G0X374.1747
N1364Z0.07
N1365G1Z-45.0F25.4; Plunge
N1366G1X400.0F76.2
N1367G0Z25.0; Retract
N1368G0X374.2630Y165.0
N1369Z0.07
N1370G1Z-25.0F25.4; Plunge
N1371G1X400.0F76.2
N1372G0Z25.0; Retract
N1373G0X374.2630
N1374Z0.07
N1375G1Z-45.0F25.4; Plunge
N1376G1X400.0F76.2
N1377G0Z25.0; Retract
N1378G0X374.3294Y162.0
N1379Z0.07
N1380G1Z-25.0F25.4; Plunge
N1381G1X400.0F76.2
N1382G0Z25.0; Retract
N1383G0X374.3294
N1384Z0.07
N1385G1Z-45.0F25.4; Plunge
N1386G1X400.0F76.2
N1387G0Z25.0; Retract
N1388G0X374.3748Y159.0
N1389Z0.07
N1390G1Z-25.0F25.4; Plunge
N1391G1X400.0F76.2
N1392G0Z25.0; Retract
N1393G0X374.3748
N1394Z0.07
N1395G1Z-45.0F25.4; Plunge
N1396G1X400.0F76.2
N1397G0Z25.0; Retract
N1398G0X374.3998Y156.0
N1399Z0.07
N1400G1Z-25.0F25.4; Plunge
N1401G1X400.0F76.2
N1402G0Z25.0; Retract
N1403G0X374.3998
N1404Z0.07
N1405G1Z-45.0F25.4; Plunge
N1406G1X400.0F76.2
N1407G0Z25.0; Retract
N1408G0X374.4052Y153.0
N1409Z0.07
N1410G1Z-25.0F25.4; Plunge
N1411G1X400.0F76.2
N1412G0Z25.0; Retract
N1413G0X374.4052
N1414Z0.07
N1415G1Z-45.0F25.4; Plunge
N1416G1X400.0F76.2
N1417G0Z25.0; Retract
N1418G0X374.3918Y150.0
N1419Z0.07
N1420G1Z-25.0F25.4; Plunge
N1421G1X400.0F76.2
N1422G0Z25.0; Retract
N1423G0X374.3918
N1424Z0.07
N1425G1Z-45.0F25.4; Plunge
N1426G1X400.0F76.2
N1427G0Z25.0; Retract
N1428G0X374.3603Y147.0
N1429Z0.07
N1430G1Z-25.0F25.4; Plunge
N1431G1X400.0F76.2
N1432G0Z25.0; Retract
N1433G0X374.3603
N1434Z0.07
N1435G1Z-45.0F25.4; Plunge
N1436G1X400.0F76.2
N1437G0Z25.0; Retract
N1438G0X374.3115Y144.0
N1439Z0.07
N1440G1Z-25.0F25.4; Plunge
N1441G1X400.0F76.2
N1442G0Z25.0; Retract
N1443G0X374.3115
N1444Z0.07
N1445G1Z-45.0F25.4; Plunge
N1446G1X400.0F76.2
N1447G0Z25.0; Retract
N1448G0X374.2460Y141.0
N1449Z0.07
N1450G1Z-25.0F25.4; Plunge
N1451G1X400.0F76.2
N1452G0Z25.0; Retract
N1453G0X374.2460
N1454Z0.07
N1455G1Z-45.0F25.4; Plunge
N1456G1X400.0F76.2
N1457G0Z25.0; Retract
N1458G0X374.1647Y138.0
N1459Z0.07
N1460G1Z-25.0F25.4; Plunge
N1461G1X400.0F76.2
N1462G0Z25.0; Retract
N1463G0X374.1647
N1464Z0.07
N1465G1Z-45.0F25.4; Plunge
N1466G1X400.0F76.2
N1467G0Z25.0; Retract
N1468G0X374.0682Y135.0
N1469Z0.07
N1470G1Z-25.0F25.4; Plunge
N1471G1X400.0F76.2
N1472G0Z25.0; Retract
N1473G0X374.0682
N1474Z0.07
N1475G1Z-45.0F25.4; Plunge
N1476G1X400.0F76.2
N1477G0Z25.0; Retract
N1478G0X373.9574Y132.0
N1479Z0.07
N1480G1Z-25.0F25.4; Plunge
N1481G1X400.0F76.2
N1482G0Z25.0; Retract
N1483G0X373.9574
N1484Z0.07
N1485G1Z-45.0F25.4; Plunge
N1486G1X400.0F76.2
N1487G0Z25.0; Retract
N1488G0X373.8329Y129.0
N1489Z0.07
N1490G1Z-25.0F25.4; Plunge
N1491G1X400.0F76.2
N1492G0Z25.0; Retract
N1493G0X373.8329
N1494Z0.07
N1495G1Z-45.0F25.4; Plunge
N1496G1X400.0F76.2
N1497G0Z25.0; Retract
N1498G0X373.6955Y126.0
N1499Z0.07
N1500G1Z-25.0F25.4; Plunge
N1501G1X400.0F76.2
N1502G0Z25.0; Retract
N1503G0X373.6955
N1504Z0.07
N1505G1Z-45.0F25.4; Plunge
N1506G1X400.0F76.2
N1507G0Z25.0; Retract
N1508G0X373.5458Y123.0
N1509Z0.07
N1510G1Z-25.0F25.4; Plunge
N1511G1X400.0F76.2
N1512G0Z25.0; Retract
N1513G0X373.5458
N1514Z0.07
N1515G1Z-45.0F25.4; Plunge
N1516G1X400.0F76.2
N1517G0Z25.0; Retract
N1518G0X373.3847Y120.0
N1519Z0.07
N1520G1Z-25.0F25.4; Plunge
N1521G1X400.0F76.2
N1522G0Z25.0; Retract
N1523G0X373.3847
N1524Z0.07
N1525G1Z-45.0F25.4; Plunge
N1526G1X400.0F76.2
N1527G0Z25.0; Retract
N1528G0X373.2128Y117.0
N1529Z0.07
N1530G1Z-25.0F25.4; Plunge
N1531G1X400.0F76.2
N1532G0Z25.0; Retract
N1533G0X373.2128
N1534Z0.07
N1535G1Z-45.0F25.4; Plunge
N1536G1X400.0F76.2
N1537G0Z25.0; Retract
N1538G0X373.0308Y114.0
N1539Z0.07
N1540G1Z-25.0F25.4; Plunge
N1541G1X400.0F76.2
N1542G0Z25.0; Retract
N1543G0X373.0308
N1544Z0.07
N1545G1Z-45.0F25.4; Plunge
N1546G1X400.0F76.2
N1547G0Z25.0; Retract
N1548G0X372.8395Y111.0
N1549Z0.07
N1550G1Z-25.0F25.4; Plunge
N1551G1X400.0F76.2
N1552G0Z25.0; Retract
N1553G0X372.8395
N1554Z0.07
N1555G1Z-45.0F25.4; Plunge
N1556G1X400.0F76.2
N1557G0Z25.0; Retract
N1558G0X372.6394Y108.0
N1559Z0.07
N1560G1Z-25.0F25.4; Plunge
N1561G1X400.0F76.2
N1562G0Z25.0; Retract
N1563G0X372.6394
N1564Z0.07
N1565G1Z-45.0F25.4; Plunge
N1566G1X400.0F76.2
N1567G0Z25.0; Retract
N1568G0X372.4305Y105.0
N1569Z0.07
N1570G1Z-25.0F25.4; Plunge
N1571G1X400.0F76.2
N1572G0Z25.0; Retract
N1573G0X372.4305
N1574Z0.07
N1575G1Z-45.0F25.4; Plunge
N1576G1X400.0F76.2
N1577G0Z25.0; Retract
N1578G0X372.2089Y102.0
N1579Z0.07
N1580G1Z-25.0F25.4; Plunge
N1581G1X400.0F76.2
N1582G0Z25.0; Retract
N1583G0X372.2089
N1584Z0.07
N1585G1Z-45.0F25.4; Plunge
N1586G1X400.0F76.2
N1587G0Z25.0; Retract
N1588G0X371.9700Y99.0
N1589Z0.07
N1590G1Z-25.0F25.4; Plunge
N1591G1X400.0F76.2
N1592G0Z25.0; Retract
N1593G0X371.9700
N1594Z0.07
N1595G1Z-45.0F25.4; Plunge
N1596G1X400.0F76.2
N1597G0Z25.0; Retract
N1598G0X371.7089Y96.0
N1599Z0.07
N1600G1Z-25.0F25.4; Plunge
N1601G1X400.0F76.2
N1602G0Z25.0; Retract
N1603G0X371.7089
N1604Z0.07
N1605G1Z-45.0F25.4; Plunge
N1606G1X400.0F76.2
N1607G0Z25.0; Retract
N1608G0X371.4206Y93.0
N1609Z0.07
N1610G1Z-25.0F25.4; Plunge
N1611G1X400.0F76.2
N1612G0Z25.0; Retract
N1613G0X371.4206
N1614Z0.07
N1615G1Z-45.0F25.4; Plunge
N1616G1X400.0F76.2
N1617G0Z25.0; Retract
N1618G0X371.1002Y90.0
N1619Z0.07
N1620G1Z-25.0F25.4; Plunge
N1621G1X400.0F76.2
N1622G0Z25.0; Retract
N1623G0X371.1002
N1624Z0.07
N1625G1Z-45.0F25.4; Plunge
N1626G1X400.0F76.2
N1627G0Z25.0; Retract
N1628G0X370.7423Y87.0
N1629Z0.07
N1630G1Z-25.0F25.4; Plunge
N1631G1X400.0F76.2
N1632G0Z25.0; Retract
N1633G0X370.7423
N1634Z0.07
N1635G1Z-45.0F25.4; Plunge
N1636G1X400.0F76.2
N1637G0Z25.0; Retract
N1638G0X370.3413Y84.0
N1639Z0.07
N1640G1Z-25.0F25.4; Plunge
N1641G1X400.0F76.2
N1642G0Z25.0; Retract
N1643G0X370.3413
N1644Z0.07
N1645G1Z-45.0F25.4; Plunge
N1646G1X400.0F76.2
N1647G0Z25.0; Retract
N1648G0X369.8912Y81.0
N1649Z0.07
N1650G1Z-25.0F25.4; Plunge
N1651G1X400.0F76.2
N1652G0Z25.0; Retract
N1653G0X369.8912
N1654Z0.07
N1655G1Z-45.0F25.4; Plunge
N1656G1X400.0F76.2
N1657G0Z25.0; Retract
N1658G0X369.3856Y78.0
N1659Z0.07
N1660G1Z-25.0F25.4; Plunge
N1661G1X400.0F76.2
N1662G0Z25.0; Retract
N1663G0X369.3856
N1664Z0.07
N1665G1Z-45.0F25.4; Plunge
N1666G1X400.0F76.2
N1667G0Z25.0; Retract
N1668G0X368.8174Y75.0
N1669Z0.07
N1670G1Z-25.0F25.4; Plunge
N1671G1X400.0F76.2
N1672G0Z25.0; Retract
N1673G0X368.8174
N1674Z0.07
N1675G1Z-45.0F25.4; Plunge
N1676G1X400.0F76.2
N1677G0Z25.0; Retract
N1678G0X368.1790Y72.0
N1679Z0.07
N1680G1Z-25.0F25.4; Plunge
N1681G1X400.0F76.2
N1682G0Z25.0; Retract
N1683G0X368.1790
N1684Z0.07
N1685G1Z-45.0F25.4; Plunge
N1686G1X400.0F76.2
N1687G0Z25.0; Retract
N1688G0X367.4617Y69.0
N1689Z0.07
N1690G1Z-25.0F25.4; Plunge
N1691G1X400.0F76.2
N1692G0Z25.0; Retract
N1693G0X367.4617
N1694Z0.07
N1695G1Z-45.0F25.4; Plunge
N1696G1X400.0F76.2
N1697G0Z25.0; Retract
N1698G0X366.6559Y66.0
N1699Z0.07
N1700G1Z-25.0F25.4; Plunge
N1701G1X400.0F76.2
N1702G0Z25.0; Retract
N1703G0X366.6559
N1704Z0.07
N1705G1Z-45.0F25.4; Plunge
N1706G1X400.0F76.2
N1707G0Z25.0; Retract
N1708G0X365.7508Y63.0
N1709Z0.07
N1710G1Z-25.0F25.4; Plunge
N1711G1X400.0F76.2
N1712G0Z25.0; Retract
N1713G0X365.7508
N1714Z0.07
N1715G1Z-45.0F25.4; Plunge
N1716G1X400.0F76.2
N1717G0Z25.0; Retract
N1718G0X364.7336Y60.0
N1719Z0.07
N1720G1Z-25.0F25.4; Plunge
N1721G1X400.0F76.2
N1722G0Z25.0; Retract
N1723G0X364.7336
N1724Z0.07
N1725G1Z-45.0F25.4; Plunge
N1726G1X400.0F76.2
N1727G0Z25.0; Retract
N1728G0X363.5900Y57.0
N1729Z0.07
N1730G1Z-25.0F25.4; Plunge
N1731G1X400.0F76.2
N1732G0Z25.0; Retract
N1733G0X363.5900
N1734Z0.07
N1735G1Z-45.0F25.4; Plunge
N1736G1X400.0F76.2
N1737G0Z25.0; Retract
N1738G0X362.3026Y54.0
N1739Z0.07
N1740G1Z-25.0F25.4; Plunge
N1741G1X400.0F76.2
N1742G0Z25.0; Retract
N1743G0X362.3026
N1744Z0.07
N1745G1Z-45.0F25.4; Plunge
N1746G1X400.0F76.2
N1747G0Z25.0; Retract
N1748G0X360.8509Y51.0
N1749Z0.07
N1750G1Z-25.0F25.4; Plunge
N1751G1X400.0F76.2
N1752G0Z25.0; Retract
N1753G0X360.8509
N1754Z0.07
N1755G1Z-45.0F25.4; Plunge
N1756G1X400.0F76.2
N1757G0Z25.0; Retract
N1758G0X359.2101Y48.0
N1759Z0.07
N1760G1Z-25.0F25.4; Plunge
N1761G1X400.0F76.2
N1762G0Z25.0; Retract
N1763G0X359.2101
N1764Z0.07
N1765G1Z-45.0F25.4; Plunge
N1766G1X400.0F76.2
N1767G0Z25.0; Retract
N1768G0X357.3491Y45.0
N1769Z0.07
N1770G1Z-25.0F25.4; Plunge
N1771G1X400.0F76.2
N1772G0Z25.0; Retract
N1773G0X357.3491
N1774Z0.07
N1775G1Z-45.0F25.4; Plunge
N1776G1X400.0F76.2
N1777G0Z25.0; Retract
N1778G0X355.2288Y42.0
N1779Z0.07
N1780G1Z-25.0F25.4; Plunge
N1781G1X400.0F76.2
N1782G0Z25.0; Retract
N1783G0X355.2288
N1784Z0.07
N1785G1Z-45.0F25.4; Plunge
N1786G1X400.0F76.2
N1787G0Z25.0; Retract
N1788G0X352.8012Y39.0
N1789Z0.07
N1790G1Z-25.0F25.4; Plunge
N1791G1X400.0F76.2
N1792G0Z25.0; Retract
N1793G0X352.8012
N1794Z0.07
N1795G1Z-45.0F25.4; Plunge
N1796G1X400.0F76.2
N1797G0Z25.0; Retract
N1798G0X350.0327Y36.0
N1799Z0.07
N1800G1Z-25.0F25.4; Plunge
N1801G1X400.0F76.2
N1802G0Z25.0; Retract
N1803G0X350.0327
N1804Z0.07
N1805G1Z-45.0F25.4; Plunge
N1806G1X400.0F76.2
N1807G0Z25.0; Retract
N1808G0X346.8985Y33.0
N1809Z0.07
N1810G1Z-25.0F25.4; Plunge
N1811G1X400.0F76.2
N1812G0Z25.0; Retract
N1813G0X346.8985
N1814Z0.07
N1815G1Z-45.0F25.4; Plunge
N1816G1X400.0F76.2
N1817G0Z25.0; Retract
N1818G0X343.3704Y30.0
N1819Z0.07
N1820G1Z-25.0F25.4; Plunge
N1821G1X400.0F76.2
N1822G0Z25.0; Retract
N1823G0X343.3704
N1824Z0.07
N1825G1Z-45.0F25.4; Plunge
N1826G1X400.0F76.2
N1827G0Z25.0; Retract
N1828G0X339.4161Y27.0
N1829Z0.07
N1830G1Z-25.0F25.4; Plunge
N1831G1X400.0F76.2
N1832G0Z25.0; Retract
N1833G0X339.4161
N1834Z0.07
N1835G1Z-45.0F25.4; Plunge
N1836G1X400.0F76.2
N1837G0Z25.0; Retract
N1838G0X334.9986Y24.0
N1839Z0.07
N1840G1Z-25.0F25.4; Plunge
N1841G1X400.0F76.2
N1842G0Z25.0; Retract
N1843G0X334.9986
N1844Z0.07
N1845G1Z-45.0F25.4; Plunge
N1846G1X400.0F76.2
N1847G0Z25.0; Retract
N1848G0X330.0710Y21.0
N1849Z0.07
N1850G1Z-25.0F25.4; Plunge
N1851G1X400.0F76.2
N1852G0Z25.0; Retract
N1853G0X330.0710
N1854Z0.07
N1855G1Z-45.0F25.4; Plunge
N1856G1X400.0F76.2
N1857G0Z25.0; Retract
N1858G0X324.5109Y18.0
N1859Z0.07
N1860G1Z-25.0F25.4; Plunge
N1861G1X400.0F76.2
N1862G0Z25.0; Retract
N1863G0X324.5109
N1864Z0.07
N1865G1Z-45.0F25.4; Plunge
N1866G1X400.0F76.2
N1867G0Z25.0; Retract
N1868G0X318.0456Y15.0
N1869Z0.07
N1870G1Z-25.0F25.4; Plunge
N1871G1X400.0F76.2
N1872G0Z25.0; Retract
N1873G0X318.0456
N1874Z0.07
N1875G1Z-45.0F25.4; Plunge
N1876G1X400.0F76.2
N1877G0Z25.0; Retract
N1878G0X310.0848Y12.0
N1879Z0.07
N1880G1Z-25.0F25.4; Plunge
N1881G1X400.0F76.2
N1882G0Z25.0; Retract
N1883G0X310.0848
N1884Z0.07
N1885G1Z-45.0F25.4; Plunge
N1886G1X400.0F76.2
N1887G0Z25.0; Retract
N1888G0X298.6638Y9.0
N1889Z0.07
N1890G1Z-25.0F25.4; Plunge
N1891G1X400.0F76.2
N1892G0Z25.0; Retract
N1893G0X298.6638
N1894Z0.07
N1895G1Z-45.0F25.4; Plunge
N1896G1X400.0F76.2
N1897G0Z25.0; Retract
N1898G0X134.4454Y48.0
N1899Z0.07
N1900G1Z-25.0F25.4; Plunge
N1901G1X165.3341F76.2
N1902G0Z25.0; Retract
N1903G0X134.4454
N1904Z0.07
N1905G1Z-45.0F25.4; Plunge
N1906G1X165.3341F76.2
N1907G0Z25.0; Retract
N1908G0X125.2973Y45.0
N1909Z0.07
N1910G1Z-25.0F25.4; Plunge
N1911G1X174.3842F76.2
N1912G0Z25.0; Retract
N1913G0X125.2973
N1914Z0.07
N1915G1Z-45.0F25.4; Plunge
N1916G1X174.3842F76.2
N1917G0Z25.0; Retract
N1918G0X117.4521Y42.0
N1919Z0.07
N1920G1Z-25.0F25.4; Plunge
N1921G1X181.8079F76.2
N1922G0Z25.0; Retract
N1923G0X117.4521
N1924Z0.07
N1925G1Z-45.0F25.4; Plunge
N1926G1X181.8079F76.2
N1927G0Z25.0; Retract
N1928G0X110.0528Y39.0
N1929Z0.07
N1930G1Z-25.0F25.4; Plunge
N1931G1X188.5050F76.2
N1932G0Z25.0; Retract
N1933G0X110.0528
N1934Z0.07
N1935G1Z-45.0F25.4; Plunge
N1936G1X188.5050F76.2
N1937G0Z25.0; Retract
N1938G0X102.6611Y36.0
N1939Z0.07
N1940G1Z-25.0F25.4; Plunge
N1941G1X194.7729F76.2
N1942G0Z25.0; Retract
N1943G0X102.6611
N1944Z0.07
N1945G1Z-45.0F25.4; Plunge
N1946G1X194.7729F76.2
N1947G0Z25.0; Retract
N1948G0X94.8317Y33.0
N1949Z0.07
N1950G1Z-25.0F25.4; Plunge
N1951G1X200.8012F76.2
N1952G0Z25.0; Retract
N1953G0X94.8317
N1954Z0.07
N1955G1Z-45.0F25.4; Plunge
N1956G1X200.8012F76.2
N1957G0Z25.0; Retract
N1958G0X85.8098Y30.0
N1959Z0.07
N1960G1Z-25.0F25.4; Plunge
N1961G1X206.7337F76.2
N1962G0Z25.0; Retract
N1963G0X85.8098
N1964Z0.07
N1965G1Z-45.0F25.4; Plunge
N1966G1X206.7337F76.2
N1967G0Z25.0; Retract
N1968G0X73.0003Y27.0
N1969Z0.07
N1970G1Z-25.0F25.4; Plunge
N1971G1X212.6983F76.2
N1972G0Z25.0; Retract
N1973G0X73.0003
N1974Z0.07
N1975G1Z-45.0F25.4; Plunge
N1976G1X212.6983F76.2
N1977G0Z25.0; Retract
N1978G0X357.6134Y255.0
N1979Z0.07
N1980G1Z-25.0F25.4; Plunge
N1981G1X400.0F76.2
N1982G0Z25.0; Retract
N1983G0X357.6134
N1984Z0.07
N1985G1Z-45.0F25.4; Plunge
N1986G1X400.0F76.2
N1987G0Z25.0; Retract
N1988G0X355.8898Y258.0
N1989Z0.07
N1990G1Z-25.0F25.4; Plunge
N1991G1X400.0F76.2
N1992G0Z25.0; Retract
N1993G0X355.8898
N1994Z0.07
N1995G1Z-45.0F25.4; Plunge
N1996G1X400.0F76.2
N1997G0Z25.0; Retract
N1998G0X353.9005Y261.0
N1999Z0.07
N2000G1Z-25.0F25.4; Plunge
N2001G1X400.0F76.2
N2002G0Z25.0; Retract
N2003G0X353.9005
N2004Z0.07
N2005G1Z-45.0F25.4; Plunge
N2006G1X400.0F76.2
N2007G0Z25.0; Retract
N2008G0X351.5859Y264.0
N2009Z0.07
N2010G1Z-25.0F25.4; Plunge
N2011G1X400.0F76.2
N2012G0Z25.0; Retract
N2013G0X351.5859
N2014Z0.07
N2015G1Z-45.0F25.4; Plunge
N2016G1X400.0F76.2
N2017G0Z25.0; Retract
N2018G0X348.9036Y267.0
N2019Z0.07
N2020G1Z-25.0F25.4; Plunge
N2021G1X400.0F76.2
N2022G0Z25.0; Retract
N2023G0X348.9036
N2024Z0.07
N2025G1Z-45.0F25.4; Plunge
N2026G1X400.0F76.2
N2027G0Z25.0; Retract
N2028G0X345.8081Y270.0
N2029Z0.07
N2030G1Z-25.0F25.4; Plunge
N2031G1X400.0F76.2
N2032G0Z25.0; Retract
N2033G0X345.8081
N2034Z0.07
N2035G1Z-45.0F25.4; Plunge
N2036G1X400.0F76.2
N2037G0Z25.0; Retract
N2038G0X342.2414Y273.0
N2039Z0.07
N2040G1Z-25.0F25.4; Plunge
N2041G1X400.0F76.2
N2042G0Z25.0; Retract
N2043G0X342.2414
N2044Z0.07
N2045G1Z-45.0F25.4; Plunge
N2046G1X400.0F76.2
N2047G0Z25.0; Retract
N2048G0X338.1258Y276.0
N2049Z0.07
N2050G1Z-25.0F25.4; Plunge
N2051G1X400.0F76.2
N2052G0Z25.0; Retract
N2053G0X338.1258
N2054Z0.07
N2055G1Z-45.0F25.4; Plunge
N2056G1X400.0F76.2
N2057G0Z25.0; Retract
N2058G0X333.3532Y279.0
N2059Z0.07
N2060G1Z-25.0F25.4; Plunge
N2061G1X400.0F76.2
N2062G0Z25.0; Retract
N2063G0X333.3532
N2064Z0.07
N2065G1Z-45.0F25.4; Plunge
N2066G1X400.0F76.2
N2067G0Z25.0; Retract
N2068G0X327.7621Y282.0
N2069Z0.07
N2070G1Z-25.0F25.4; Plunge
N2071G1X400.0F76.2
N2072G0Z25.0; Retract
N2073G0X327.7621
N2074Z0.07
N2075G1Z-45.0F25.4; Plunge
N2076G1X400.0F76.2
N2077G0Z25.0; Retract
N2078G0X321.0879Y285.0
N2079Z0.07
N2080G1Z-25.0F25.4; Plunge
N2081G1X400.0F76.2
N2082G0Z25.0; Retract
N2083G0X321.0879
N2084Z0.07
N2085G1Z-45.0F25.4; Plunge
N2086G1X400.0F76.2
N2087G0Z25.0; Retract
N2088G0X312.7955Y288.0
N2089Z0.07
N2090G1Z-25.0F25.4; Plunge
N2091G1X400.0F76.2
N2092G0Z25.0; Retract
N2093G0X312.7955
N2094Z0.07
N2095G1Z-45.0F25.4; Plunge
N2096G1X400.0F76.2
N2097G0Z25.0; Retract
N2098G0X300.9354Y291.0
N2099Z0.07
N2100G1Z-25.0F25.4; Plunge
N2101G1X400.0F76.2
N2102G0Z25.0; Retract
N2103G0X300.9354
N2104Z0.07
N2105G1Z-45.0F25.4; Plunge
N2106G1X400.0F76.2
N2107G0Z25.0; Retract
N2108G0X0.0Y1.5
N2109Z0.07
N2110G1Z-25.0F25.4; Plunge
N2111G1X400.0F76.2
N2112G0Z25.0; Retract
N2113G0X0.0
N2114Z0.07
N2115G1Z-45.0F25.4; Plunge
N2116G1X400.0F76.2
N2117G0Z25.0; Retract
N2118G0X0.0Y298.5
N2119Z0.07
N2120G1Z-25.0F25.4; Plunge
N2121G1X400.0F76.2
N2122G0Z25.0; Retract
N2123G0X0.0
N2124Z0.07
N2125G1Z-45.0F25.4; Plunge
N2126G1X400.0F76.2
N2127G0Z25.0; Retract
N2128M02; End of File
