N0; Post Processor: proLIGHT 1000 Single Tool
N1; Material Type: Wood
N2; Material Size: X400.0000 Y300.0000 Z50.0000
N3; Material Origin: X0.0000 Y0.0000 Z0.0000
N4; Units: Metric
N5G05
N6;Engrave, Toolpath #1
N7S5000.0
N8M03
N9G0Z25.0; Retract
N10G0X198.0801Y155.7622
N11Z0.07
N12G1Z-10.0F25.4; Plunge
N13G3X197.0196Y152.8322I201.5974J152.8322F76.2
N14G1Y125.6045
N15G3X201.5974Y121.0267I201.5974J125.6045
N16G1X227.0343
N17G3X231.6121Y125.6045I227.0343J125.6045
N18G1Y163.2713
N19G3X230.1563Y166.6194I227.0343J163.2713
N20G1X220.7341Y175.4053
N21G3X214.0949Y174.9872I217.6122J172.0572
N22G1X198.0801Y155.7622
N23G1Z-20.0F25.4; Plunge
N24G3X197.0196Y152.8322I201.5974J152.8322F76.2
N25G1Y125.6045
N26G3X201.5974Y121.0267I201.5974J125.6045
N27G1X227.0343
N28G3X231.6121Y125.6045I227.0343J125.6045
N29G1Y163.2713
N30G3X230.1563Y166.6194I227.0343J163.2713
N31G1X220.7341Y175.4053
N32G3X214.0949Y174.9872I217.6122J172.0572
N33G1X198.0801Y155.7622
N34G0Z25.0; Retract
N35G0X200.3851Y153.8421
N36Z0.07
N37G1Z-10.0F25.4; Plunge
N38G3X200.0196Y152.8322I201.5974J152.8322F76.2
N39G1Y125.6045
N40G3X201.5974Y124.0267I201.5974J125.6045
N41G1X227.0343
N42G3X228.6121Y125.6045I227.0343J125.6045
N43G1Y163.2713
N44G3X228.1104Y164.4253I227.0343J163.2713
N45G1X218.6882Y173.2112
N46G3X216.3999Y173.0671I217.6122J172.0572
N47G1X200.3851Y153.8421
N48G1Z-20.0F25.4; Plunge
N49G3X200.0196Y152.8322I201.5974J152.8322F76.2
N50G1Y125.6045
N51G3X201.5974Y124.0267I201.5974J125.6045
N52G1X227.0343
N53G3X228.6121Y125.6045I227.0343J125.6045
N54G1Y163.2713
N55G3X228.1104Y164.4253I227.0343J163.2713
N56G1X218.6882Y173.2112
N57G3X216.3999Y173.0671I217.6122J172.0572
N58G1X200.3851Y153.8421
N59G0Z25.0; Retract
N60G0X203.0196Y152.3174
N61Z0.07
N62G1Z-10.0F25.4; Plunge
N63G1Y127.0267F76.2
N64X225.6121
N65Y162.6529
N66X217.7423Y169.9914
N67X203.0196Y152.3174
N68G1Z-20.0F25.4; Plunge
N69G1Y127.0267F76.2
N70X225.6121
N71Y162.6529
N72X217.7423Y169.9914
N73X203.0196Y152.3174
N74G0Z25.0; Retract
N75G0X206.0196Y151.2316
N76Z0.07
N77G1Z-10.0F25.4; Plunge
N78G1Y130.0267F76.2
N79X222.6121
N80Y161.3484
N81X218.0167Y165.6336
N82X206.0196Y151.2316
N83G1Z-20.0F25.4; Plunge
N84G1Y130.0267F76.2
N85X222.6121
N86Y161.3484
N87X218.0167Y165.6336
N88X206.0196Y151.2316
N89G0Z25.0; Retract
N90G0X209.0196Y150.1458
N91Z0.07
N92G1Z-10.0F25.4; Plunge
N93G1Y133.0267F76.2
N94X219.6121
N95Y160.0440
N96X218.2911Y161.2758
N97X209.0196Y150.1458
N98G1Z-20.0F25.4; Plunge
N99G1Y133.0267F76.2
N100X219.6121
N101Y160.0440
N102X218.2911Y161.2758
N103X209.0196Y150.1458
N104G0Z25.0; Retract
N105G0X212.0196Y149.0599
N106Z0.07
N107G1Z-10.0F25.4; Plunge
N108G1Y136.0267F76.2
N109X216.6121
N110Y154.5731
N111X212.0196Y149.0599
N112G1Z-20.0F25.4; Plunge
N113G1Y136.0267F76.2
N114X216.6121
N115Y154.5731
N116X212.0196Y149.0599
N117G0Z25.0; Retract
N118G0X218.2911Y161.2758
N119Z0.07
N120G1Z-10.0F25.4; Plunge
N121G1X209.0196Y150.1458F76.2
N122Y133.0267
N123X219.6121
N124Y160.0440
N125G0Z25.0; Retract
N126G0X218.2911Y161.2758
N127Z0.07
N128G1Z-20.0F25.4; Plunge
N129G1X209.0196Y150.1458F76.2
N130Y133.0267
N131X219.6121
N132Y160.0440
N133G0Z25.0; Retract
N134G0X167.2261Y199.5130
N135Z0.07
N136G1Z-10.0F25.4; Plunge
N137G3X163.2479Y203.4082I165.2370J201.4606F76.2
N138G1X126.1369Y165.5070
N139G3X130.1151Y161.6117I128.1260J163.5593
N140G1X167.2261Y199.5130
N141G1Z-20.0F25.4; Plunge
N142G3X163.2479Y203.4082I165.2370J201.4606F76.2
N143G1X126.1369Y165.5070
N144G3X130.1151Y161.6117I128.1260J163.5593
N145G1X167.2261Y199.5130
N146G0Z25.0; Retract
N147G0X306.1361Y239.4124
N148Z0.07
N149G1Z-10.0F25.4; Plunge
N150G2X310.7139Y234.8346I306.1361J234.8346F76.2
N151G1Y227.1754
N152G2X306.1361Y222.5976I306.1361J227.1754
N153G1X196.7957
N154G2X192.2178Y227.1754I196.7957J227.1754
N155G1Y234.8346
N156G2X196.7957Y239.4124I196.7957J234.8346
N157G1X306.1361
N158G1Z-20.0F25.4; Plunge
N159G2X310.7139Y234.8346I306.1361J234.8346F76.2
N160G1Y227.1754
N161G2X306.1361Y222.5976I306.1361J227.1754
N162G1X196.7957
N163G2X192.2178Y227.1754I196.7957J227.1754
N164G1Y234.8346
N165G2X196.7957Y239.4124I196.7957J234.8346
N166G1X306.1361
N167G0Z25.0; Retract
N168G0Y236.4124
N169Z0.07
N170G1Z-10.0F25.4; Plunge
N171G2X307.7139Y234.8346I306.1361J234.8346F76.2
N172G1Y227.1754
N173G2X306.1361Y225.5976I306.1361J227.1754
N174G1X196.7957
N175G2X195.2178Y227.1754I196.7957J227.1754
N176G1Y234.8346
N177G2X196.7957Y236.4124I196.7957J234.8346
N178G1X306.1361
N179G1Z-20.0F25.4; Plunge
N180G2X307.7139Y234.8346I306.1361J234.8346F76.2
N181G1Y227.1754
N182G2X306.1361Y225.5976I306.1361J227.1754
N183G1X196.7957
N184G2X195.2178Y227.1754I196.7957J227.1754
N185G1Y234.8346
N186G2X196.7957Y236.4124I196.7957J234.8346
N187G1X306.1361
N188G0Z25.0; Retract
N189G0X304.7139Y233.4124
N190Z0.07
N191G1Z-10.0F25.4; Plunge
N192G1Y228.5976F76.2
N193X198.2178
N194Y233.4124
N195X304.7139
N196G1Z-20.0F25.4; Plunge
N197G1Y228.5976F76.2
N198X198.2178
N199Y233.4124
N200X304.7139
N201G0Z25.0; Retract
N202G0X96.8228Y179.7342
N203Z0.07
N204G1Z-10.0F25.4; Plunge
N205G1Y121.9905F76.2
N206G3X109.5841Y120.4474I103.2968J121.9905
N207G1X116.7810Y149.7712
N208G3Y151.9535I112.3351J150.8624
N209G1X109.5841Y181.2773
N210G0Z25.0; Retract
N211G0X96.8228Y179.7342
N212Z0.07
N213G1Z-20.0F25.4; Plunge
N214G1Y121.9905F76.2
N215G3X109.5841Y120.4474I103.2968J121.9905
N216G1X116.7810Y149.7712
N217G3Y151.9535I112.3351J150.8624
N218G1X109.5841Y181.2773
N219G0Z25.0; Retract
N220G0X113.8675Y150.4863
N221Z0.07
N222G1Z-10.0F25.4; Plunge
N223G3Y151.2384I112.3351J150.8624F76.2
N224G1X106.6706Y180.5623
N225G3X99.8228Y179.7342I103.2968J179.7342
N226G1Y121.9905
N227G3X106.6706Y121.1625I103.2968J121.9905
N228G1X113.8675Y150.4863
N229G1Z-20.0F25.4; Plunge
N230G3Y151.2384I112.3351J150.8624F76.2
N231G1X106.6706Y180.5623
N232G3X99.8228Y179.7342I103.2968J179.7342
N233G1Y121.9905
N234G3X106.6706Y121.1625I103.2968J121.9905
N235G1X113.8675Y150.4863
N236G0Z25.0; Retract
N237G0X110.8707Y150.8624
N238Z0.07
N239G1Z-10.0F25.4; Plunge
N240G1X103.7570Y179.8472F76.2
N241G3X102.8228Y179.7342I103.2968J179.7342
N242G1Y121.9905
N243G3X103.7570Y121.8775I103.2968J121.9905
N244G1X110.8707Y150.8624
N245G1Z-20.0F25.4; Plunge
N246G1X103.7570Y179.8472F76.2
N247G3X102.8228Y179.7342I103.2968J179.7342
N248G1Y121.9905
N249G3X103.7570Y121.8775I103.2968J121.9905
N250G1X110.8707Y150.8624
N251G0Z25.0; Retract
N252G0X107.7817
N253Z0.07
N254G1Z-10.0F25.4; Plunge
N255G1X105.8228Y158.8437F76.2
N256Y142.8810
N257X107.7817Y150.8624
N258G1Z-20.0F25.4; Plunge
N259G1X105.8228Y158.8437F76.2
N260Y142.8810
N261X107.7817Y150.8624
N262G0Z25.0; Retract
N263G0X22.5903Y170.5950
N264Z0.07
N265G1Z-10.0F25.4; Plunge
N266G1X77.0775F76.2
N267G2X81.6553Y166.0172I77.0775J166.0172
N268G1Y134.7340
N269G2X77.0775Y130.1562I77.0775J134.7340
N270G1X22.5903
N271Y170.5950
N272G1Z-20.0F25.4; Plunge
N273G1X77.0775F76.2
N274G2X81.6553Y166.0172I77.0775J166.0172
N275G1Y134.7340
N276G2X77.0775Y130.1562I77.0775J134.7340
N277G1X22.5903
N278Y170.5950
N279G0Z25.0; Retract
N280G0X25.5903Y167.5950
N281Z0.07
N282G1Z-10.0F25.4; Plunge
N283G1X77.0775F76.2
N284G2X78.6553Y166.0172I77.0775J166.0172
N285G1Y134.7340
N286G2X77.0775Y133.1562I77.0775J134.7340
N287G1X25.5903
N288Y167.5950
N289G1Z-20.0F25.4; Plunge
N290G1X77.0775F76.2
N291G2X78.6553Y166.0172I77.0775J166.0172
N292G1Y134.7340
N293G2X77.0775Y133.1562I77.0775J134.7340
N294G1X25.5903
N295Y167.5950
N296G0Z25.0; Retract
N297G0X28.5903Y164.5950
N298Z0.07
N299G1Z-10.0F25.4; Plunge
N300G1X75.6553F76.2
N301Y136.1562
N302X28.5903
N303Y164.5950
N304G1Z-20.0F25.4; Plunge
N305G1X75.6553F76.2
N306Y136.1562
N307X28.5903
N308Y164.5950
N309G0Z25.0; Retract
N310G0X31.5903Y161.5950
N311Z0.07
N312G1Z-10.0F25.4; Plunge
N313G1X72.6553F76.2
N314Y139.1562
N315X31.5903
N316Y161.5950
N317G1Z-20.0F25.4; Plunge
N318G1X72.6553F76.2
N319Y139.1562
N320X31.5903
N321Y161.5950
N322G0Z25.0; Retract
N323G0X34.5903Y158.5950
N324Z0.07
N325G1Z-10.0F25.4; Plunge
N326G1X69.6553F76.2
N327Y142.1562
N328X34.5903
N329Y158.5950
N330G1Z-20.0F25.4; Plunge
N331G1X69.6553F76.2
N332Y142.1562
N333X34.5903
N334Y158.5950
N335G0Z25.0; Retract
N336G0X37.5903Y155.5950
N337Z0.07
N338G1Z-10.0F25.4; Plunge
N339G1X66.6553F76.2
N340Y145.1562
N341X37.5903
N342Y155.5950
N343G1Z-20.0F25.4; Plunge
N344G1X66.6553F76.2
N345Y145.1562
N346X37.5903
N347Y155.5950
N348G0Z25.0; Retract
N349G0X40.5903Y152.5950
N350Z0.07
N351G1Z-10.0F25.4; Plunge
N352G1X63.6553F76.2
N353Y148.1562
N354X40.5903
N355Y152.5950
N356G1Z-20.0F25.4; Plunge
N357G1X63.6553F76.2
N358Y148.1562
N359X40.5903
N360Y152.5950
N361G0Z25.0; Retract
N362G0X167.1846Y203.4497
N363Z0.07
N364G1Z-10.0F25.4; Plunge
N365G1X126.1783Y161.5702F76.2
N366G0Z25.0; Retract
N367G0X167.1846Y203.4497
N368Z0.07
N369G1Z-20.0F25.4; Plunge
N370G1X126.1783Y161.5702F76.2
N371G0Z25.0; Retract
N372G0X40.5903Y150.3756
N373Z0.07
N374G1Z-10.0F25.4; Plunge
N375G1X63.6553F76.2
N376G0Z25.0; Retract
N377G0X40.5903
N378Z0.07
N379G1Z-20.0F25.4; Plunge
N380G1X63.6553F76.2
N381G0Z25.0; Retract
N382G0X214.3159Y151.8165
N383Z0.07
N384G1Z-10.0F25.4; Plunge
N385G1Y136.0267F76.2
N386G0Z25.0; Retract
N387G0Y151.8165
N388Z0.07
N389G1Z-20.0F25.4; Plunge
N390G1Y136.0267F76.2
N391G0Z25.0; Retract
N392G0X304.7139Y231.0050
N393Z0.07
N394G1Z-10.0F25.4; Plunge
N395G1X198.2178F76.2
N396G0Z25.0; Retract
N397G0X304.7139
N398Z0.07
N399G1Z-20.0F25.4; Plunge
N400G1X198.2178F76.2
N401G0Z25.0; Retract

;Outline Cutting NC Code

N5G05
N6;Engrave, Toolpath #1
N7S5000.0
N8M03
N9G0Z25.0; Retract
N10G0X213.2344Y26.7334
N11Z0.07
N12G1Z-25.0F25.4; Plunge
N13G3X229.4628Y19.1806I345.3686J289.4344F76.2
N14X264.2291Y8.8077I290.2900J159.6035
N15X325.3301Y18.4172I280.9579J101.4969
N16X344.3836Y30.8266I275.4556J115.8267
N17X362.8351Y55.1978I305.2277J79.6421
N18X368.2363Y72.2554I275.8336J92.1302
N19X369.9396Y81.3064I227.2803J103.4683
N20X372.0452Y99.9172I122.2029J118.7590
N21X374.4043Y154.7646I-330.9897J157.6317
N22X371.8105Y199.0352I1.7382J155.1413
N23X365.2307Y234.3889I88.8126J164.6541
N24X361.1105Y247.3759I250.5989J205.1687
N25X355.0739Y259.2848I298.9392J223.3460
N26X343.0485Y272.3575I307.5507J227.6358
N27X323.3941Y284.0272I290.4121J206.0925
N28X261.7294Y290.5672I282.4777J192.2159
N29X239.9567Y284.4895I291.6022J141.5135
N30X223.2523Y277.7386I317.3564J68.9296
N31X198.9339Y266.3920I759.9675J-904.2999
N32G2X178.2634Y257.7469I86.9669J505.0722
N33X165.3385Y254.0326I143.9840J352.6856
N34X143.0292Y252.9074I150.4475J327.5549
N35X112.1843Y260.4808I154.3248J365.5118
N36G3X91.2675Y268.5688I5.5321J15.7523
N37X60.3994Y272.2620I66.6604J193.7462
N38X29.1667Y265.2906I68.2928J163.4491
N39X24.3373Y260.9499I32.6906J256.5132
N40X22.7851Y256.4663I37.4548J253.8979
N41X25.2372Y241.5541I45.4972J252.5434
N42X31.8119Y235.6891I37.1141J248.2506
N43X36.0947Y234.2336I42.4068J259.8348
N44X47.8849Y231.8033I82.2017J428.1062
N45G2X57.2063Y229.2867I27.4739J137.6810
N46X72.9616Y220.5838I46.1955J190.7404
N47X80.6534Y207.0118I54.6892J201.2624
N48X80.2001Y190.8602I51.7695J199.7404
N49X74.2403Y181.7073I58.4925J198.4781
N50X69.0431Y177.2649I40.0444J216.4523
N51X65.2571Y174.5117I17.9618J243.5281
N52X62.3715Y173.5950I62.3715J178.5950
N53G1X24.5903
N54G3X19.5903Y168.5950I24.5903J168.5950
N55G1Y130.3371
N56G3X21.2758Y126.5936I24.5903J130.3371
N57X28.9208Y121.6683I39.8961J147.1000
N58G2X31.2583Y119.5362I25.8627J115.9680
N59X32.1570Y116.3892I25.0329J116.0567
N60X31.9504Y111.5253I8.6007J114.9532
N61X29.0181Y100.3113I-14.4688J117.6731
N62X23.4084Y88.2181I-88.1088J147.2954
N63G3X19.7299Y80.2224I126.1285J36.1164
N64X17.3211Y53.6176I58.1442J63.3330
N65X31.9904Y33.8754I51.0046J63.3248
N66X46.5294Y27.4458I56.5929J69.8549
N67X60.0465Y25.8906I59.6724J82.1616
N68X82.4916Y29.0645I59.3555J111.7274
N69X95.2441Y33.1505I45.2921J167.1092
N70X120.2201Y43.0886I-211.4218J840.2011
N71G2X133.0373Y47.5914I181.2676J-110.1904
N72X141.7908Y49.6766I154.2707J-22.1280
N73X159.4926Y49.3807I149.8569J2.5767
N74X172.5836Y45.6647I143.2948J-32.5976
N75X181.0395Y42.3277I114.3888J-114.1812
N76X197.3058Y34.7496I63.6313J-230.9345
N77G0Z25.0; Retract
N78G0X213.2344Y26.7334
N79Z0.07
N80G1Z-45.0F25.4; Plunge
N81G3X229.4628Y19.1806I345.3686J289.4344F76.2
N82X264.2291Y8.8077I290.2900J159.6035
N83X325.3301Y18.4172I280.9579J101.4969
N84X344.3836Y30.8266I275.4556J115.8267
N85X362.8351Y55.1978I305.2277J79.6421
N86X368.2363Y72.2554I275.8336J92.1302
N87X369.9396Y81.3064I227.2803J103.4683
N88X372.0452Y99.9172I122.2029J118.7590
N89X374.4043Y154.7646I-330.9897J157.6317
N90X371.8105Y199.0352I1.7382J155.1413
N91X365.2307Y234.3889I88.8126J164.6541
N92X361.1105Y247.3759I250.5989J205.1687
N93X355.0739Y259.2848I298.9392J223.3460
N94X343.0485Y272.3575I307.5507J227.6358
N95X323.3941Y284.0272I290.4121J206.0925
N96X261.7294Y290.5672I282.4777J192.2159
N97X239.9567Y284.4895I291.6022J141.5135
N98X223.2523Y277.7386I317.3564J68.9296
N99X198.9339Y266.3920I759.9675J-904.2999
N100G2X178.2634Y257.7469I86.9669J505.0722
N101X165.3385Y254.0326I143.9840J352.6856
N102X143.0292Y252.9074I150.4475J327.5549
N103X112.1843Y260.4808I154.3248J365.5118
N104G3X91.2675Y268.5688I5.5321J15.7523
N105X60.3994Y272.2620I66.6604J193.7462
N106X29.1667Y265.2906I68.2928J163.4491
N107X24.3373Y260.9499I32.6906J256.5132
N108X22.7851Y256.4663I37.4548J253.8979
N109X25.2372Y241.5541I45.4972J252.5434
N110X31.8119Y235.6891I37.1141J248.2506
N111X36.0947Y234.2336I42.4068J259.8348
N112X47.8849Y231.8033I82.2017J428.1062
N113G2X57.2063Y229.2867I27.4739J137.6810
N114X72.9616Y220.5838I46.1955J190.7404
N115X80.6534Y207.0118I54.6892J201.2624
N116X80.2001Y190.8602I51.7695J199.7404
N117X74.2403Y181.7073I58.4925J198.4781
N118X69.0431Y177.2649I40.0444J216.4523
N119X65.2571Y174.5117I17.9618J243.5281
N120X62.3715Y173.5950I62.3715J178.5950
N121G1X24.5903
N122G3X19.5903Y168.5950I24.5903J168.5950
N123G1Y130.3371
N124G3X21.2758Y126.5936I24.5903J130.3371
N125X28.9208Y121.6683I39.8961J147.1000
N126G2X31.2583Y119.5362I25.8627J115.9680
N127X32.1570Y116.3892I25.0329J116.0567
N128X31.9504Y111.5253I8.6007J114.9532
N129X29.0181Y100.3113I-14.4688J117.6731
N130X23.4084Y88.2181I-88.1088J147.2954
N131G3X19.7299Y80.2224I126.1285J36.1164
N132X17.3211Y53.6176I58.1442J63.3330
N133X31.9904Y33.8754I51.0046J63.3248
N134X46.5294Y27.4458I56.5929J69.8549
N135X60.0465Y25.8906I59.6724J82.1616
N136X82.4916Y29.0645I59.3555J111.7274
N137X95.2441Y33.1505I45.2921J167.1092
N138X120.2201Y43.0886I-211.4218J840.2011
N139G2X133.0373Y47.5914I181.2676J-110.1904
N140X141.7908Y49.6766I154.2707J-22.1280
N141X159.4926Y49.3807I149.8569J2.5767
N142X172.5836Y45.6647I143.2948J-32.5976
N143X181.0395Y42.3277I114.3888J-114.1812
N144X197.3058Y34.7496I63.6313J-230.9345
N145G0Z25.0; Retract
N146G0X197.3066Y34.7492
N147Z0.07
N148G1Z-25.0F25.4; Plunge
N149G3X213.2337Y26.7337I51472.2989J101900.7520F76.2
N150G0Z25.0; Retract
N151G0X197.3066Y34.7492
N152Z0.07
N153G1Z-45.0F25.4; Plunge
N154G3X213.2337Y26.7337I51472.2989J101900.7520F76.2
N155G0Z25.0; Retract
N2128M02; End of File