N0; Post Processor: proLIGHT 1000 Single Tool
N1; Material Type: Wood
N2; Material Size: X400.0000 Y300.0000 Z50.0000
N3; Material Origin: X0.0000 Y0.0000 Z0.0000
N4; Units: Metric
N5G05
N6;Engrave, Toolpath #1
N7S5000.0
N8M03
N9G0Z25.0; Retract
N10G0X213.2344Y26.7334
N11Z0.07
N12G1Z-25.0F25.4; Plunge
N13G3X229.4628Y19.1806I345.3686J289.4344F76.2
N14X264.2291Y8.8077I290.2900J159.6035
N15X325.3301Y18.4172I280.9579J101.4969
N16X344.3836Y30.8266I275.4556J115.8267
N17X362.8351Y55.1978I305.2277J79.6421
N18X368.2363Y72.2554I275.8336J92.1302
N19X369.9396Y81.3064I227.2803J103.4683
N20X372.0452Y99.9172I122.2029J118.7590
N21X374.4043Y154.7646I-330.9897J157.6317
N22X371.8105Y199.0352I1.7382J155.1413
N23X365.2307Y234.3889I88.8126J164.6541
N24X361.1105Y247.3759I250.5989J205.1687
N25X355.0739Y259.2848I298.9392J223.3460
N26X343.0485Y272.3575I307.5507J227.6358
N27X323.3941Y284.0272I290.4121J206.0925
N28X261.7294Y290.5672I282.4777J192.2159
N29X239.9567Y284.4895I291.6022J141.5135
N30X223.2523Y277.7386I317.3564J68.9296
N31X198.9339Y266.3920I759.9675J-904.2999
N32G2X178.2634Y257.7469I86.9669J505.0722
N33X165.3385Y254.0326I143.9840J352.6856
N34X143.0292Y252.9074I150.4475J327.5549
N35X112.1843Y260.4808I154.3248J365.5118
N36G3X91.2675Y268.5688I5.5321J15.7523
N37X60.3994Y272.2620I66.6604J193.7462
N38X29.1667Y265.2906I68.2928J163.4491
N39X24.3373Y260.9499I32.6906J256.5132
N40X22.7851Y256.4663I37.4548J253.8979
N41X25.2372Y241.5541I45.4972J252.5434
N42X31.8119Y235.6891I37.1141J248.2506
N43X36.0947Y234.2336I42.4068J259.8348
N44X47.8849Y231.8033I82.2017J428.1062
N45G2X57.2063Y229.2867I27.4739J137.6810
N46X72.9616Y220.5838I46.1955J190.7404
N47X80.6534Y207.0118I54.6892J201.2624
N48X80.2001Y190.8602I51.7695J199.7404
N49X74.2403Y181.7073I58.4925J198.4781
N50X69.0431Y177.2649I40.0444J216.4523
N51X65.2571Y174.5117I17.9618J243.5281
N52X62.3715Y173.5950I62.3715J178.5950
N53G1X24.5903
N54G3X19.5903Y168.5950I24.5903J168.5950
N55G1Y130.3371
N56G3X21.2758Y126.5936I24.5903J130.3371
N57X28.9208Y121.6683I39.8961J147.1000
N58G2X31.2583Y119.5362I25.8627J115.9680
N59X32.1570Y116.3892I25.0329J116.0567
N60X31.9504Y111.5253I8.6007J114.9532
N61X29.0181Y100.3113I-14.4688J117.6731
N62X23.4084Y88.2181I-88.1088J147.2954
N63G3X19.7299Y80.2224I126.1285J36.1164
N64X17.3211Y53.6176I58.1442J63.3330
N65X31.9904Y33.8754I51.0046J63.3248
N66X46.5294Y27.4458I56.5929J69.8549
N67X60.0465Y25.8906I59.6724J82.1616
N68X82.4916Y29.0645I59.3555J111.7274
N69X95.2441Y33.1505I45.2921J167.1092
N70X120.2201Y43.0886I-211.4218J840.2011
N71G2X133.0373Y47.5914I181.2676J-110.1904
N72X141.7908Y49.6766I154.2707J-22.1280
N73X159.4926Y49.3807I149.8569J2.5767
N74X172.5836Y45.6647I143.2948J-32.5976
N75X181.0395Y42.3277I114.3888J-114.1812
N76X197.3058Y34.7496I63.6313J-230.9345
N77G0Z25.0; Retract
N78G0X213.2344Y26.7334
N79Z0.07
N80G1Z-45.0F25.4; Plunge
N81G3X229.4628Y19.1806I345.3686J289.4344F76.2
N82X264.2291Y8.8077I290.2900J159.6035
N83X325.3301Y18.4172I280.9579J101.4969
N84X344.3836Y30.8266I275.4556J115.8267
N85X362.8351Y55.1978I305.2277J79.6421
N86X368.2363Y72.2554I275.8336J92.1302
N87X369.9396Y81.3064I227.2803J103.4683
N88X372.0452Y99.9172I122.2029J118.7590
N89X374.4043Y154.7646I-330.9897J157.6317
N90X371.8105Y199.0352I1.7382J155.1413
N91X365.2307Y234.3889I88.8126J164.6541
N92X361.1105Y247.3759I250.5989J205.1687
N93X355.0739Y259.2848I298.9392J223.3460
N94X343.0485Y272.3575I307.5507J227.6358
N95X323.3941Y284.0272I290.4121J206.0925
N96X261.7294Y290.5672I282.4777J192.2159
N97X239.9567Y284.4895I291.6022J141.5135
N98X223.2523Y277.7386I317.3564J68.9296
N99X198.9339Y266.3920I759.9675J-904.2999
N100G2X178.2634Y257.7469I86.9669J505.0722
N101X165.3385Y254.0326I143.9840J352.6856
N102X143.0292Y252.9074I150.4475J327.5549
N103X112.1843Y260.4808I154.3248J365.5118
N104G3X91.2675Y268.5688I5.5321J15.7523
N105X60.3994Y272.2620I66.6604J193.7462
N106X29.1667Y265.2906I68.2928J163.4491
N107X24.3373Y260.9499I32.6906J256.5132
N108X22.7851Y256.4663I37.4548J253.8979
N109X25.2372Y241.5541I45.4972J252.5434
N110X31.8119Y235.6891I37.1141J248.2506
N111X36.0947Y234.2336I42.4068J259.8348
N112X47.8849Y231.8033I82.2017J428.1062
N113G2X57.2063Y229.2867I27.4739J137.6810
N114X72.9616Y220.5838I46.1955J190.7404
N115X80.6534Y207.0118I54.6892J201.2624
N116X80.2001Y190.8602I51.7695J199.7404
N117X74.2403Y181.7073I58.4925J198.4781
N118X69.0431Y177.2649I40.0444J216.4523
N119X65.2571Y174.5117I17.9618J243.5281
N120X62.3715Y173.5950I62.3715J178.5950
N121G1X24.5903
N122G3X19.5903Y168.5950I24.5903J168.5950
N123G1Y130.3371
N124G3X21.2758Y126.5936I24.5903J130.3371
N125X28.9208Y121.6683I39.8961J147.1000
N126G2X31.2583Y119.5362I25.8627J115.9680
N127X32.1570Y116.3892I25.0329J116.0567
N128X31.9504Y111.5253I8.6007J114.9532
N129X29.0181Y100.3113I-14.4688J117.6731
N130X23.4084Y88.2181I-88.1088J147.2954
N131G3X19.7299Y80.2224I126.1285J36.1164
N132X17.3211Y53.6176I58.1442J63.3330
N133X31.9904Y33.8754I51.0046J63.3248
N134X46.5294Y27.4458I56.5929J69.8549
N135X60.0465Y25.8906I59.6724J82.1616
N136X82.4916Y29.0645I59.3555J111.7274
N137X95.2441Y33.1505I45.2921J167.1092
N138X120.2201Y43.0886I-211.4218J840.2011
N139G2X133.0373Y47.5914I181.2676J-110.1904
N140X141.7908Y49.6766I154.2707J-22.1280
N141X159.4926Y49.3807I149.8569J2.5767
N142X172.5836Y45.6647I143.2948J-32.5976
N143X181.0395Y42.3277I114.3888J-114.1812
N144X197.3058Y34.7496I63.6313J-230.9345
N145G0Z25.0; Retract
N146G0X197.3066Y34.7492
N147Z0.07
N148G1Z-25.0F25.4; Plunge
N149G3X213.2337Y26.7337I51472.2989J101900.7520F76.2
N150G0Z25.0; Retract
N151G0X197.3066Y34.7492
N152Z0.07
N153G1Z-45.0F25.4; Plunge
N154G3X213.2337Y26.7337I51472.2989J101900.7520F76.2
N155G0Z25.0; Retract
N156M02; End of File
